!!!!SEGMENT: pl-wtm--r-1757--001_stefani-jozef--divertisment-allegretto.krn
!!!cenid: 18xx:1907
!!!COM: Stefani, Józef
!!!COM-rismID: pe30024097
!!!CDT: 1800/04/16-1876/03/19
!!!CNT: Polish
!!!OPR: Divertisment
!!!OTL: Allegretto
!!!OMV: 001
!!!PDT:
!!!AGN: Secular
!!!OMD: Allegretto
!!!SMS-siglum: PL-Wtm
!!!SMS-shelfmark: R 1757
!!!SMS-shelfwork: 001-001 M
!!!SMS-variant:
!!!SMS-altvar:
!!!NIFC-rismSourceID: 1001131271
!!!NIFC-islandoraID: pl-wtm:29262
!!!URL-pdf-islandora: https://repozytorium.nifc.pl/islandora/object/pl-wtm%3A29262/datastream/PDF/view
!!!URL-scan: https://polish.musicsources.pl/pl/lokalizacje/galeria/rekopisy/6492 @EN{Scan on Polish Music Sources Website} @PL{Skany w portalu Dziedzictwo Muzyki Polskiej w otwartym dostępie}
!!!ONB-nifc: UWAGA: No. 1., skan 0002-0005
!!!system-decoration: [(<g1>,s3,<g2>,s6,<g3>,s9,s10,s11,s12)]
!!!AIN: 1 bass 1 cello 2 cor 6 empty 1 oboe 1 viola
!!!key:
**kern	**dynam	**kern	**dynam	**kern	**dynam	**kern	**dynam	**kern	**dynam	**kern	**dynam	**kern	**dynam	**kern	**dynam	**kern	**dynam	**kern	**dynam	**kern	**dynam	**kern	**dynam
*	*	*	*	*	*	*	*	*group3	*group3	*group3	*group3	*	*	*group2	*group2	*group2	*group2	*	*	*group1	*group1	*group1	*group1
*part12	*part12	*part11	*part11	*part10	*part10	*part9	*part9	*part8	*part8	*part7	*part7	*part6	*part6	*part5	*part5	*part4	*part4	*part3	*part3	*part2	*part2	*part1	*part1
*staff12	*	*staff11	*	*staff10	*	*staff9	*	*staff8	*	*staff7	*	*staff6	*	*staff5	*	*staff4	*	*staff3	*	*staff2	*	*staff1	*
*	*	*	*	*	*	*	*	*I""Fagotti	*	*I""Fagotti	*	*	*	*I""Flautti	*	*I""Flautti	*	*	*	*I""Violini	*	*I""Violini	*
*Ibass	*	*Icello	*	*Icor	*	*Icor	*	*Iempty	*	*Iempty	*	*Ioboe	*	*Iempty	*	*Iempty	*	*Iviola	*	*Iempty	*	*Iempty	*
*I"C: Basso	*	*I"Violoncello	*	*I"Corni in d.	*	*I"Corno in Es	*	*	*	*	*	*I"Oboe	*	*	*	*	*	*I"Viole	*	*	*	*	*
*	*	*	*	*	*	*	*	*I''fag	*	*I''fag	*	*	*	*I''fl	*	*I''fl	*	*	*	*I''vl	*	*I''vl	*
*I'C-b.	*	*I'V-c.	*	*I'C. in D	*	*I'C. in E♭	*	*	*	*	*	*I'Ob.	*	*	*	*	*	*I'vla	*	*	*	*	*
*clefF4	*	*clefF4	*	*clefG2	*	*clefG2	*	*clefF4	*	*clefF4	*	*clefG2	*	*clefG2	*	*clefG2	*	*clefC3	*	*clefG2	*	*clefG2	*
*ITrd0c0	*	*	*	*ITrd6c10	*	*ITrd5c9	*	*	*	*	*	*	*	*	*	*	*	*	*	*	*	*	*
*k[f#]	*	*k[f#]	*	*k[f#c#]	*	*k[b-e-a-]	*	*k[f#]	*	*k[f#]	*	*k[f#]	*	*k[f#]	*	*k[f#]	*	*k[f#]	*	*k[f#]	*	*k[f#]	*
*G:	*	*G:	*	*G:	*	*G:	*	*G:	*	*G:	*	*G:	*	*G:	*	*G:	*	*G:	*	*G:	*	*G:	*
*M2/4	*	*M2/4	*	*M2/4	*	*M2/4	*	*M2/4	*	*M2/4	*	*M2/4	*	*M2/4	*	*M2/4	*	*M2/4	*	*M2/4	*	*M2/4	*
=1	=1	=1	=1	=1	=1	=1	=1	=1	=1	=1	=1	=1	=1	=1	=1	=1	=1	=1	=1	=1	=1	=1	=1
*all\right	*	*all\right	*	*all\right	*	*all\right	*	*all\right	*	*all\right	*	*all\right	*	*all\right	*	*all\right	*	*all\right	*	*all\right	*	*all\right	*
*	*	*	*	*^	*	*	*	*	*	*	*	*	*	*	*	*	*	*	*	*	*	*	*
!	!	!LO:TX:t=P:problem=w taktach 1-10 powtarzam partię C.B. tylko oktawę wyżej	!	!	!	!	!	!	!LO:TX:t=P:problem=w taktach 1-2 powtarzam partię Fg I	!	!	!	!	!	!	!	!	!	!	!	!	!	!	!
!LO:TX:t=P:problem=mixed beam	!	!LO:TX:t=P:problem=mixed beam	!	!	!	!LO:DY:rj	!LO:TX:t=P:problem=pierwsze dwa takty są in D, od trzeciego taktu waltornie rozdzielają się na dwa systemy	!	!LO:TX:t=P:problem=mixed beam	!LO:DY:rj	!LO:TX:t=P:problem=mixed beam	!LO:DY:rj	!	!	!	!LO:DY:a	!	!LO:DY:rj	!	!	!	!	!LO:TX:t=P:problem=all\right&colon; global	!LO:DY:rj
8GG/L	f	8GG/Lyy	f	4d/	4d\	f	2ryy	.	8GG/Lyy	f	8GG/L	f	4gg\ 4b\	.	4bb\	.	4ggg\	f	4g\ 4G\	.	4b/ 4d/ 4G/	.	4gg\ 4b\ 4d\	f
8G\	.	8G\yy	.	.	.	.	.	.	8G\yy	.	8G\	.	.	.	.	.	.	.	.	.	.	.	.	.
8D\	.	8D\yy	.	4d/	4d\	.	.	.	8D\yy	.	8D\	.	4gg\ 4b\	.	4bb\	.	4ggg\	.	4g\ 4G\	.	4b/ 4d/ 4G/	.	4gg\ 4b\ 4d\	.
8BB\J	.	8BB\Jyy	.	.	.	.	.	.	8BB\Jyy	.	8BB\J	.	.	.	.	.	.	.	.	.	.	.	.	.
=2	=2	=2	=2	=2	=2	=2	=2	=2	=2	=2	=2	=2	=2	=2	=2	=2	=2	=2	=2	=2	=2	=2	=2	=2
4.GG;/	.	4.GG;/yy	.	4d;/	4d\	.	2ryy	.	4.GG;/yy	.	4.GG;/	.	4.gg\ 4.b;\	.	4.bb;\	.	4.ggg;\	.	4.g\ 4.G\	.	4.b/ 4.d/ 4.G;/	.	4.gg\ 4.b\ 4.d;\	.
.	.	.	.	4r	4ryy	.	.	.	.	.	.	.	.	.	.	.	.	.	.	.	.	.	.	.
!	!	!	!	!	!	!	!	!	!	!	!	!	!	!	!	!	!LO:TX:a:t=Picolo	!	!	!	!	!	!	!
8r	.	8ryy	.	.	.	.	.	.	8r	.	8r	.	8r	.	8r	.	(>16b\LL	.	8r	.	8r	.	(16b\LL	.
.	.	.	.	.	.	.	.	.	.	.	.	.	.	.	.	.	16cc\JJ)	.	.	.	.	.	16cc\JJ)	.
*	*	*	*	*v	*v	*	*	*	*	*	*	*	*	*	*	*	*	*	*	*	*	*	*	*
=3	=3	=3	=3	=3	=3	=3	=3	=3	=3	=3	=3	=3	=3	=3	=3	=3	=3	=3	=3	=3	=3	=3	=3
*	*	*	*	*	*	*	*	*	*	*	*	*	*	*	*	*	*	*tremolo	*	*tremolo	*	*	*
!	!	!	!	!LO:TX:a:t=Corni in d.	!	!LO:TX:a:t=in Es	!	!	!	!	!	!	!	!	!	!	!	!	!	!	!	!	!
8G\	.	8G\yy	.	2r	.	2r	.	2r	.	2r	.	2r	.	2r	.	8dd'\L	.	8G/L	.	8d/L 8B/	p	8dd'\L	.
8r	.	8ryy	.	.	.	.	.	.	.	.	.	.	.	.	.	(16dd\L	.	8G/	.	8d/ 8B/	.	(16dd\L	.
.	.	.	.	.	.	.	.	.	.	.	.	.	.	.	.	16b\JJ)	.	.	.	.	.	16b\JJ)	.
8G\	.	8G\yy	.	.	.	.	.	.	.	.	.	.	.	.	.	8gg'\L	.	8G/	.	8d/ 8B/	.	8gg\L	.
8r	.	8ryy	.	.	.	.	.	.	.	.	.	.	.	.	.	(16gg\L	.	8G/J	.	8d/J 8B/	.	16gg\L	.
.	.	.	.	.	.	.	.	.	.	.	.	.	.	.	.	16dd\JJ)	.	.	.	.	.	16dd\JJ	.
=4	=4	=4	=4	=4	=4	=4	=4	=4	=4	=4	=4	=4	=4	=4	=4	=4	=4	=4	=4	=4	=4	=4	=4
*	*	*	*	*^	*	*	*	*	*	*	*	*	*	*	*	*	*	*	*	*	*	*	*
!LO:TX:t=P:problem=mixed beam	!	!LO:TX:t=P:problem=mixed beam	!	!	!	!	!	!	!LO:TX:t=P:problem=mixed beam	!	!	!	!	!	!	!	!	!	!	!	!	!	!	!
8G\L	.	8G\Lyy	.	8r	8ryy	.	8r	.	8G\L	.	2r	.	8r	.	4r	.	4.bb\	.	8G/L	.	8d/L 8B/	.	4.bb\	.
8GG/	.	8GG/yy	.	8d/L	8d\L	.	8g/L 8G/	.	8GG/	.	.	.	8gg\L 8b\	.	.	.	.	.	8G/	.	8d/ 8B/	.	.	.
8BB/	.	8BB/yy	.	8d/J	8d\J	.	8g/J 8G/	.	8BB/	.	.	.	8gg\J 8b\	.	8bb\L	.	.	.	8G/	.	8d/ 8B/	.	.	.
8D/J	.	8D/Jyy	.	8r	8ryy	.	8r	.	8D/J	.	.	.	8r	.	8bb\J	.	16aa\LL	.	8G/J	.	8d/J 8B/	.	(16aa\LL	.
.	.	.	.	.	.	.	.	.	.	.	.	.	.	.	.	.	16gg\JJ	.	.	.	.	.	16gg\JJ)	.
=5	=5	=5	=5	=5	=5	=5	=5	=5	=5	=5	=5	=5	=5	=5	=5	=5	=5	=5	=5	=5	=5	=5	=5	=5
!	!	!	!	!	!	!	!	!	!	!	!	!	!	!	!	!	!LO:TX:t=P:problem=w taktach 5-10 powtarzam partię Vn I	!	!	!	!	!	!	!
!LO:TX:t=P:problem=mixed beam	!	!LO:TX:t=P:problem=mixed beam	!	!	!	!	!	!	!LO:TX:t=P:problem=mixed beam	!	!	!	!	!	!	!	!LO:TX:a:t=Col V 1o	!	!	!	!	!	!	!
8G\L	.	8G\Lyy	.	8r	8ryy	.	8g/ 8G/	.	8G\L	.	2r	.	8r	.	8r	.	(16gg\LLyy	.	8G/L	.	8d/L 8B/	.	(16gg\LL	.
.	.	.	.	.	.	.	.	.	.	.	.	.	.	.	.	.	16ff#\)yy	.	.	.	.	.	16ff#\)	.
8GG/J	.	8GG/Jyy	.	8d/	8d\	.	8r	.	8GG/J	.	.	.	8gg\ 8b\	.	8bb\	.	(16ff#\yy	.	8G/	.	8d/ 8B/	.	(16ff#\	.
.	.	.	.	.	.	.	.	.	.	.	.	.	.	.	.	.	16ee\JJ)yy	.	.	.	.	.	16ee\JJ)	.
8ryy	.	8ryyyy	.	8r	8ryy	.	8g/ 8G/	.	4r	.	.	.	8r	.	8r	.	(16ee\LLyy	.	8G/	.	8d/ 8B/	.	(16ee\LL	.
.	.	.	.	.	.	.	.	.	.	.	.	.	.	.	.	.	16dd\)yy	.	.	.	.	.	16dd\)	.
8r	.	8ryy	.	8d/	8d\	.	8r	.	.	.	.	.	8gg\ 8b\	.	8bb\	.	(16dd\yy	.	8G/J	.	8d/J 8B/	.	(16dd\	.
.	.	.	.	.	.	.	.	.	.	.	.	.	.	.	.	.	16cc#X\JJ)yy	.	.	.	.	.	16cc#X\JJ)	.
*	*	*	*	*v	*v	*	*	*	*	*	*	*	*	*	*	*	*	*	*	*	*	*	*	*
=6	=6	=6	=6	=6	=6	=6	=6	=6	=6	=6	=6	=6	=6	=6	=6	=6	=6	=6	=6	=6	=6	=6	=6
*	*	*	*	*	*	*^	*	*	*	*	*	*	*	*	*	*	*	*	*	*	*	*	*
8D/L	.	8D/Lyy	.	8r	.	8r	8ryy	.	8D/L	.	4r	.	8r	.	8r	.	8.ee\Lyy	.	8A/L	.	8d/L 8c/	.	8.ee\L	.
8AA/J	.	8AA/Jyy	.	8f#\L 8d\	.	8d/L	8d\L	.	8AA/	.	.	.	8ff#\L 8a\	.	8ccc\L	.	.	.	8A/	.	8d/ 8c/	.	.	.
.	.	.	.	.	.	.	.	.	.	.	.	.	.	.	.	.	16dd\Jkyy	.	.	.	.	.	16dd\Jk	.
8D/	.	8D/yy	.	8f#\J 8d\	.	8d/J	8d\J	.	8D/J	.	8r	.	8ff#\J 8a\	.	8ccc\J	.	8a/yy	.	8A/	.	8d/ 8c/	.	8a/	.
8r	.	8ryy	.	8r	.	8r	8ryy	.	8r	.	(16A\LL	.	8r	.	8r	.	16a/LLyy	.	8A/J	.	8d/J 8c/	.	16a/LL	.
.	.	.	.	.	.	.	.	.	.	.	16B\JJ	.	.	.	.	.	16b/JJyy	.	.	.	.	.	16b/JJ	.
*	*	*	*	*	*	*v	*v	*	*	*	*	*	*	*	*	*	*	*	*	*	*	*	*	*
=7	=7	=7	=7	=7	=7	=7	=7	=7	=7	=7	=7	=7	=7	=7	=7	=7	=7	=7	=7	=7	=7	=7	=7
8D\	.	8D\yy	.	2r	.	2r	.	2r	.	8c'\L)	.	2r	.	2r	.	8ccnX\Lyy	.	8A/L	.	8d/L 8c/	.	8ccnX\L	.
8ryy	.	8ryyyy	.	.	.	.	.	.	.	(16c\L	.	.	.	.	.	16cc\Lyy	.	8A/	.	8d/ 8c/	.	16cc\L	.
.	.	.	.	.	.	.	.	.	.	16A\JJ	.	.	.	.	.	16a\JJyy	.	.	.	.	.	16a\JJ	.
8D\	.	8D\yy	.	.	.	.	.	.	.	8f#'\L)	.	.	.	.	.	8ff#\Lyy	.	8A/	.	8d/ 8c/	.	8ff#\L	.
8r	.	8ryy	.	.	.	.	.	.	.	(16f#\L	.	.	.	.	.	16ff#\Lyy	.	8A/J	.	8d/J 8c/	.	16ff#\L	.
.	.	.	.	.	.	.	.	.	.	16d\JJ	.	.	.	.	.	16dd\JJyy	.	.	.	.	.	16dd\JJ	.
=8	=8	=8	=8	=8	=8	=8	=8	=8	=8	=8	=8	=8	=8	=8	=8	=8	=8	=8	=8	=8	=8	=8	=8
*	*	*	*	*	*	*^	*	*	*	*	*	*	*	*	*	*	*	*	*	*	*	*	*
8F#\L	.	8F#\Lyy	.	8r	.	8r	8ryy	.	8r	.	(4.a\)	.	8r	.	8r	.	4.aa\yy	.	8A/L	.	8d/L 8c/	.	4.aa\	.
8D\	.	8D\yy	.	8d/L 8F#/	.	8d/L	8d\L	.	8D\L	.	.	.	8ff#\L 8a\	.	8ccc\L	.	.	.	8A/	.	8d/ 8c/	.	.	.
8F#\	.	8F#\yy	.	8d/J 8F#/	.	8d/J	8d\J	.	8F#\	.	.	.	8ff#\J 8a\	.	8ccc\J	.	.	.	8A/	.	8d/ 8c/	.	.	.
8A\J	.	8A\Jyy	.	8r	.	8r	8ryy	.	8A\J	.	16g\LL	.	8r	.	8r	.	16gg\LLyy	.	8A/J	.	8d/J 8c/	.	16gg\LL	.
.	.	.	.	.	.	.	.	.	.	.	16f#\JJ)	.	.	.	.	.	16ff#\JJyy	.	.	.	.	.	16ff#\JJ	.
=9	=9	=9	=9	=9	=9	=9	=9	=9	=9	=9	=9	=9	=9	=9	=9	=9	=9	=9	=9	=9	=9	=9	=9	=9
!LO:TX:t=P:problem=mixed beam	!	!LO:TX:t=P:problem=mixed beam	!	!	!	!	!	!	!LO:TX:t=P:problem=mixed beam	!	!	!	!	!	!	!	!	!	!	!	!	!	!	!
8d\L	.	8d\Lyy	.	8r	.	8d/	8d\	.	8d\L	.	(16f#\LL	.	8r	.	8r	.	16ff#\LLyy	.	8A/L	.	8d/L 8c/	.	16ff#\LL	.
.	.	.	.	.	.	.	.	.	.	.	16e\)	.	.	.	.	.	16ee\yy	.	.	.	.	.	16ee\	.
8D/J	.	8D/Jyy	.	8d/ 8F#/	.	8r	8ryy	.	8D/J	.	(16e\	.	8ff#\ 8a\	.	8ccc\	.	16ee\yy	.	8A/	.	8d/ 8c/	.	16ee\	.
.	.	.	.	.	.	.	.	.	.	.	16d\JJ)	.	.	.	.	.	16dd\JJyy	.	.	.	.	.	16dd\JJ	.
8r	.	8ryy	.	8r	.	8d/	8d\	.	8r	.	(16d\LL	.	8r	.	8r	.	16dd\LLyy	.	8A/	.	8d/ 8c/	.	16dd\LL	.
.	.	.	.	.	.	.	.	.	.	.	16c\)	.	.	.	.	.	16cc\yy	.	.	.	.	.	16cc\	.
8D/	.	8D/yy	.	8d/ 8F#/	.	8r	8ryy	.	8D/	.	(16c\	.	8ff#\ 8a\	.	8ccc\	.	16cc\yy	.	8A/J	.	8d/J 8c/	.	16cc\	.
.	.	.	.	.	.	.	.	.	.	.	16A\JJ)	.	.	.	.	.	16a\JJyy	.	.	.	.	.	16a\JJ	.
*	*	*	*	*	*	*v	*v	*	*	*	*	*	*	*	*	*	*	*	*	*	*	*	*	*
=10	=10	=10	=10	=10	=10	=10	=10	=10	=10	=10	=10	=10	=10	=10	=10	=10	=10	=10	=10	=10	=10	=10	=10
8G\L	.	8G\Lyy	.	8r	.	8r	.	8G\L	.	8.c\L	.	8r	.	8r	.	8.cc\Lyy	.	8G/L	.	8d/L 8B/	.	8.cc\L	.
8D\	.	8D\yy	.	8d/L 8D/	.	8g/L 8G/	.	8D\	.	.	.	8gg\L 8b\	.	8bb\L	.	.	.	8G/	.	8d/ 8B/	.	.	.
.	.	.	.	.	.	.	.	.	.	16B\Jk	.	.	.	.	.	16b\Jkyy	.	.	.	.	.	16b\Jk	.
8G\J	.	8G\Jyy	.	8d/J 8D/	.	8g/J 8G/	.	8G\J	.	8G\	.	8gg\J 8b\	.	8bb\J	.	8g/yy	.	8G/	.	8d/ 8B/	.	8g/	.
8r	.	8ryy	.	8r	.	8r	.	8r	.	8r	.	8r	.	8r	.	(16b\LLyy	.	8G/J	.	8d/J 8B/	.	(16b\LL	.
.	.	.	.	.	.	.	.	.	.	.	.	.	.	.	.	16cc\JJ)yy	.	.	.	.	.	16cc\JJ)	.
!!LO:PB:g=original
=11	=11	=11	=11	=11	=11	=11	=11	=11	=11	=11	=11	=11	=11	=11	=11	=11	=11	=11	=11	=11	=11	=11	=11
!	!	!	!	!LO:TX:a:t=Corni	!	!	!	!	!	!	!	!	!	!	!	!	!	!	!	!	!	!	!
!	!	!	!	!LO:TX:t=P:problem=znak powtórki, chyba po pierwszej waltorni	!	!	!	!	!	!	!	!	!	!	!	!LO:TX:t=P:problem=w taktach 11-20 powtarzam partię Vn I	!	!LO:TX:t=P:problem=mixed beam	!	!	!	!	!
8G\L	.	8G\Lyy	.	2ryy	.	2r	.	4r	.	2r	.	2r	.	2r	.	8dd'\Lyy	.	8G/L	.	8d/L 8B/	.	8dd'\L	.
8G\	.	8G\yy	.	.	.	.	.	.	.	.	.	.	.	.	.	(16dd\Lyy	.	8g\	.	8d/ 8B/	.	(16dd\L	.
.	.	.	.	.	.	.	.	.	.	.	.	.	.	.	.	16b\JJ)yy	.	.	.	.	.	16b\JJ)	.
8G\	.	8G\yy	.	.	.	.	.	(8G\L	.	.	.	.	.	.	.	8gg'\Lyy	.	8g\	.	8d/ 8B/	.	8gg'\L	.
8F#\J	.	8F#\Jyy	.	.	.	.	.	8F#\J	.	.	.	.	.	.	.	(16gg\Lyy	.	8g\J	.	8d/J 8B/	.	(16gg\L	.
.	.	.	.	.	.	.	.	.	.	.	.	.	.	.	.	16dd\JJ)yy	.	.	.	.	.	16dd\JJ)	.
=12	=12	=12	=12	=12	=12	=12	=12	=12	=12	=12	=12	=12	=12	=12	=12	=12	=12	=12	=12	=12	=12	=12	=12
*	*	*	*	*^	*	*	*	*	*	*	*	*	*	*	*	*	*	*	*	*	*	*	*
*tremolo	*	*tremolo	*	*	*	*	*	*	*	*	*	*	*	*	*	*	*	*	*	*	*	*	*	*
8E\L	.	8E\Lyy	.	8r	8ryy	.	8r	.	8E\)	.	8r	.	8r	.	8r	.	4.bb\yy	.	8g\L	.	8g/L 8B/	.	4.bb\	.
8E\	.	8E\yy	.	8e/L	8e\L	.	8g\L	.	4r	.	8E\L	.	8gg\L 8b\	.	8bb\L	.	.	.	8e\	.	8g/ 8B/	.	.	.
8E\	.	8E\yy	.	8e/J	8e\J	.	8g\J	.	.	.	8E\J	.	8gg\J 8b\	.	8bb\J	.	.	.	8e\	.	8g/ 8B/	.	.	.
8E\J	.	8E\Jyy	.	8r	8ryy	.	8r	.	8E\	.	8r	.	8r	.	8r	.	16aa\LLyy	.	8e\J	.	8g/J 8B/	.	16aa\LL	.
.	.	.	.	.	.	.	.	.	.	.	.	.	.	.	.	.	16gg\JJyy	.	.	.	.	.	16gg\JJ	.
*Xtremolo	*	*Xtremolo	*	*	*	*	*	*	*	*	*	*	*	*	*	*	*	*	*	*	*	*	*	*
*	*	*	*	*v	*v	*	*	*	*	*	*	*	*	*	*	*	*	*	*	*	*	*	*	*
=13	=13	=13	=13	=13	=13	=13	=13	=13	=13	=13	=13	=13	=13	=13	=13	=13	=13	=13	=13	=13	=13	=13	=13
*	*	*	*	*	*	*^	*	*	*	*	*	*	*	*	*	*	*	*	*	*	*	*	*
!	!	!	!	!	!	!	!	!	!	!	!LO:TX:t=P:problem=mixed beam	!	!	!	!	!	!	!	!	!	!	!	!	!
!LO:TX:t=P:problem=mixed beam	!	!LO:TX:t=P:problem=mixed beam	!	!	!	!	!	!	!LO:TX:t=P:problem=mixed beam	!	!LO:TX:t=P:problem=zapis poprawiany	!	!	!	!	!	!	!	!	!	!	!	!	!
8AA/L	.	8AA/Lyy	.	8e/ 8A/	.	4r	4ryy	.	8AA/L	.	8AA/L	.	8gg\ 8a\	.	8ccc#X\	.	(16gg\LLyy	.	8e\L	.	8g/L 8A/	.	(16gg\LL	.
.	.	.	.	.	.	.	.	.	.	.	.	.	.	.	.	.	16ff#\)yy	.	.	.	.	.	16ff#\)	.
8A\J	.	8A\Jyy	.	8r	.	.	.	.	8A\J	.	8A\J|	.	8r	.	8r	.	(16ff#\yy	.	8e\	.	8g/ 8A/	.	(16ff#\	.
.	.	.	.	.	.	.	.	.	.	.	.	.	.	.	.	.	16ee\JJ)yy	.	.	.	.	.	16ee\JJ)	.
!	!	!	!	!	!	!	!	!	!	!	!	!	!	!	!	!LO:DY:rj	!	!	!	!	!	!	!	!
8r	.	8ryy	.	((4e/ 4A/	.	(4g/	(4g\	>	8r	.	8r	.	(4gg\ [>4a\	.	(4ccc#\	f	16ee\LLyy	.	8e\	.	8g/ 8A/	.	16ee\LL	.
.	.	.	.	.	.	.	.	.	.	.	.	.	.	.	.	.	16bb\yy	.	.	.	.	.	16bb\	.
8AA/	.	8AA/yy	.	.	.	.	.	.	8AA/	.	8AA/	.	.	.	.	.	16aa\yy	.	8e\J	.	8g/J 8A/	.	16aa\	.
.	.	.	.	.	.	.	.	.	.	.	.	.	.	.	.	.	16cc#X\JJyy	.	.	.	.	.	16cc#X\JJ	.
=	=	=	=	=	=	=	=	=	=	=	=	=	=	=	=	=	=	=	=	=	=	=	=	=
*	*	*	*	*^	*	*	*	*	*	*	*	*	*	*	*	*	*	*	*	*	*	*	*	*
*	*	*	*	*	*	*	*	*	*	*	*	*	*	*	*	*	*	*	*	*Xtremolo	*	*Xtremolo	*	*	*
8D/L	.	8D/Lyy	.	8f#/L))	8d\L	.	8f#X/)	8f#\)	]	8D/L	.	8D/L	.	8ff#\L 8a\])	.	8ddd\L)	.	8dd'\Lyy	.	8d\L	.	8f#/L 8A/	.	8dd'\L	.
!	!	!	!	!	!	!	!	!	!	!	!	!	!	!	!	!LO:SIC:v:s=8ccc#	!	!	!	!	!	!	!	!	!
8AA/	.	8AA/yy	.	8e/	8A\	.	8r	8ryy	.	8AA/	.	8AA/	.	8gg\ 8a\	.	(8ccc\	.	(16ff#\Lyy	.	8c#X\	.	8g/ 8A/	.	(16ff#\L	.
.	.	.	.	.	.	.	.	.	.	.	.	.	.	.	.	.	.	16ee\JJyy	.	.	.	.	.	16ee\JJ	.
8D/J	.	8D/Jyy	.	8d/J	8F#\J	.	8r	8ryy	.	8D/J	.	8D/J	.	8ff#\J 8a\	.	8ddd\J)	.	8dd\)yy	.	8e\J 8d\	.	8f#/J 8A/	.	8dd\)	.
*	*	*	*	*	*	*	*v	*v	*	*	*	*	*	*	*	*	*	*	*	*	*	*	*	*	*
=14	=14	=14	=14	=14	=14	=14	=14	=14	=14	=14	=14	=14	=14	=14	=14	=14	=14	=14	=14	=14	=14	=14	=14	=14
8r	.	8ryy	.	8r	8ryy	.	8r	.	8r	.	16.d\LL	.	8r	.	8r	.	16.ddd\LLyy	.	8r	.	8r	.	16.ddd\LL	.
.	.	.	.	.	.	.	.	.	.	.	32d\JJk	.	.	.	.	.	32ddd\JJkyy	.	.	.	.	.	32ddd\JJk	.
*	*	*	*	*v	*v	*	*	*	*	*	*	*	*	*	*	*	*	*	*	*	*	*	*	*
=15	=15	=15	=15	=15	=15	=15	=15	=15	=15	=15	=15	=15	=15	=15	=15	=15	=15	=15	=15	=15	=15	=15	=15
*	*	*	*	*	*	*^	*	*	*	*	*	*	*	*	*	*	*	*	*	*	*	*	*
8r	.	8ryy	.	[2d/ [2D/	.	[2d/	2d\	.	8r	.	8D\	.	8r	.	8r	.	8dd\yy	.	8r	.	8r	.	8dd\	.
8D\L	.	8D\Lyy	.	.	.	.	.	.	8D\L	.	8r	.	(16ff#\LL 16a\	.	(16aa\LL	.	8ryy	.	8a\L	.	8ccn/L 8d/	.	8r	.
.	.	.	.	.	.	.	.	.	.	.	.	.	16gg\JJ 16b\)	.	16bb\JJ	.	.	.	.	.	.	.	.	.
8D\J	.	8D\Jyy	.	.	.	.	.	.	8D\J	.	8r	.	8aa\ 8cc\	.	8ccc\)	.	8ryy	.	8a\J	.	8cc/J 8d/	.	8r	.
8r	.	8ryy	.	.	.	.	.	.	8r	.	16.d\LL	.	8r	.	8r	.	16.ddd\LLyy	.	8r	.	8r	.	16.ddd\LL	.
.	.	.	.	.	.	.	.	.	.	.	32d\JJk	.	.	.	.	.	32ddd\JJkyy	.	.	.	.	.	32ddd\JJk	.
=16	=16	=16	=16	=16	=16	=16	=16	=16	=16	=16	=16	=16	=16	=16	=16	=16	=16	=16	=16	=16	=16	=16	=16	=16
8r	.	8ryy	.	2d/_ 2D/_	.	2d/_	2d\	.	8r	.	8B\	.	8r	.	8r	.	8bb\yy	.	8r	.	8r	.	8bb\	.
8D\L	.	8D\Lyy	.	.	.	.	.	.	8D\L	.	8r	.	(16gg\LL 16b\	.	(16bb\LL	.	8ryy	.	8g\L	.	8b/L 8d/	.	8r	.
.	.	.	.	.	.	.	.	.	.	.	.	.	16aa\JJ 16cc\)	.	16ccc\JJ	.	.	.	.	.	.	.	.	.
8D\J	.	8D\Jyy	.	.	.	.	.	.	8D\J	.	8r	.	8bb\ 8dd\	.	8ddd\)	.	8ryy	.	8g\J	.	8b/J 8d/	.	8r	.
8r	.	8ryy	.	.	.	.	.	.	8r	.	16.d\LL	.	8r	.	8r	.	16.ddd\LLyy	.	8r	.	8r	.	16.ddd\LL	.
.	.	.	.	.	.	.	.	.	.	.	32d\JJk	.	.	.	.	.	32ddd\JJkyy	.	.	.	.	.	32ddd\JJk	.
=17	=17	=17	=17	=17	=17	=17	=17	=17	=17	=17	=17	=17	=17	=17	=17	=17	=17	=17	=17	=17	=17	=17	=17	=17
.	.	.	.	.	.	.	.	.	.	.	8qd/	.	.	.	.	.	(8qddd/yy	.	.	.	.	.	(8qddd/	.
8D\	.	8D\yy	.	2d/] 2D/]	.	2d/_	2d\	.	8D\	.	8c\L	.	8r	.	8r	.	8ccc\L)yy	.	8r	.	8r	.	8ccc\L)	.
8r	.	8ryy	.	.	.	.	.	.	8r	.	8B\	.	8aa\ 8cc\	.	8ccc\	.	8bb'\yy	.	8f#\	.	8a/ 8d/	.	8bb'\	.
8F#\	.	8F#\yy	.	.	.	.	.	.	8F#\	.	8c\	.	8r	.	8r	.	8ccc'\yy	.	8r	.	8r	.	8ccc'\	.
8r	.	8ryy	.	.	.	.	.	.	8r	.	8A\J	.	8aa\ 8cc\	.	8ccc\	.	8aa'\Jyy	.	8a\	.	8a/ 8d/	.	8aa'\J	.
=18	=18	=18	=18	=18	=18	=18	=18	=18	=18	=18	=18	=18	=18	=18	=18	=18	=18	=18	=18	=18	=18	=18	=18	=18
.	.	.	.	.	.	.	.	.	.	.	.	.	.	.	.	.	8qee/yy	.	.	.	.	.	8qee/	>
8G\L	.	8G\Lyy	.	8d/ 8D/	.	8d/]	8d\	.	8G\L	.	(4e\	.	8r	.	8r	.	(4eee\yy	.	8r	.	8r	.	(4eee\	.
8D\	.	8D\yy	.	8r	.	8r	8ryy	.	8D\	.	.	.	8gg\L 8b\	.	8bb\L	.	.	.	8g\L	.	8b/L 8d/	.	.	.
8G\J	.	8G\Jyy	.	4r	.	4r	4ryy	.	8G\J	.	8d\)	.	8gg\J 8b\	.	8bb\J	.	8ddd\)yy	.	8g\J	.	8b/J 8d/	.	8ddd\)	]
8r	.	8ryy	.	.	.	.	.	.	8r	.	8r	.	8r	.	8r	.	8r	.	8r	.	8r	.	16.ddd\LL	.
.	.	.	.	.	.	.	.	.	.	.	.	.	.	.	.	.	.	.	.	.	.	.	32ddd\JJk	.
=19	=19	=19	=19	=19	=19	=19	=19	=19	=19	=19	=19	=19	=19	=19	=19	=19	=19	=19	=19	=19	=19	=19	=19	=19
8r	.	8ryy	.	[2d/ [2D/	.	[2d/	[2d\	.	8r	.	8r	.	8r	.	8r	.	8r	.	8r	.	8r	.	8dd\	.
8D\L	.	8D\Lyy	.	.	.	.	.	.	(16F#\LL	.	(16F#\LL	.	8cc/L 8a/	.	(16ff#\LL	.	(16aa\LL	.	8a\L	.	8cc/L 8d/	.	8r	.
.	.	.	.	.	.	.	.	.	16G\JJ	.	16G\JJ	.	.	.	16gg\JJ	.	16bb\JJ	.	.	.	.	.	.	.
8D\J	.	8D\Jyy	.	.	.	.	.	.	8A\)	.	8A\)	.	8cc/J 8a/	.	8aa\)	.	8ccc\)	.	8a\J	.	8cc/J 8d/	.	8r	.
8r	.	8ryy	.	.	.	.	.	.	8r	.	8r	.	8r	.	8r	.	8r	.	8r	.	8r	.	16.ddd\LL	.
.	.	.	.	.	.	.	.	.	.	.	.	.	.	.	.	.	.	.	.	.	.	.	32ddd\JJk	.
=20	=20	=20	=20	=20	=20	=20	=20	=20	=20	=20	=20	=20	=20	=20	=20	=20	=20	=20	=20	=20	=20	=20	=20	=20
8r	.	8ryy	.	2d/_ 2D/_	.	2d/_	2d\]	.	8r	.	8r	.	8r	.	8r	.	8r	.	8r	.	8r	.	8bb\	.
8D\L	.	8D\Lyy	.	.	.	.	.	.	(16G\LL	.	(16B\LL	.	8b/L 8g/	.	(16gg\LL	.	(16bb\LL	.	8g\L	.	8b/L 8d/	.	8r	.
.	.	.	.	.	.	.	.	.	16A\JJ	.	16c\JJ	.	.	.	16aa\JJ	.	16ccc\JJ	.	.	.	.	.	.	.
8D\J	.	8D\Jyy	.	.	.	.	.	.	8B\)	.	8d\)	.	8b/J 8g/	.	8bb\)	.	8ddd\)	.	8g\J	.	8b/J 8d/	.	8r	.
8r	.	8ryy	.	.	.	.	.	.	8r	.	8r	.	8r	.	8r	.	8r	.	8r	.	8r	.	16.ddd\LL	.
.	.	.	.	.	.	.	.	.	.	.	.	.	.	.	.	.	.	.	.	.	.	.	32ddd\JJk	.
=21	=21	=21	=21	=21	=21	=21	=21	=21	=21	=21	=21	=21	=21	=21	=21	=21	=21	=21	=21	=21	=21	=21	=21	=21
.	.	.	.	.	.	.	.	.	.	.	.	.	.	.	.	.	.	.	.	.	.	.	(8qddd/	.
!	!	!	!	!	!	!	!LO:TX:t=P:problem=brak początku ligatur	!	!	!	!	!	!	!	!	!	!	!	!	!	!	!	!	!
8d\	.	8d\yy	.	(2d/_ 2D/]	.	2d/_	[>2d\	.	8d\	.	8d\	.	8r	.	8r	.	8r	.	8r	.	8r	.	8ccc\L)	.
8r	.	8ryy	.	.	.	.	.	.	8r	.	8r	.	8ff#\ 8a\	.	8aa\	.	8ccc\	.	8f#\	.	8a/ 8d/	.	8bb'\	.
8D\	.	8D\yy	.	.	.	.	.	.	8D/	.	8D/	.	8r	.	8r	.	8r	.	8r	.	8r	.	8ccc'\	.
8r	.	8ryy	.	.	.	.	.	.	8r	.	8r	.	8ff#\ 8a\	.	8aa\	.	8ccc\	.	8f#\	.	8cc/ 8d/	.	8aa'\J	.
!!LO:PB:g=original
=	=	=	=	=	=	=	=	=	=	=	=	=	=	=	=	=	=	=	=	=	=	=	=	=
*	*	*	*	*^	*	*	*	*	*	*	*	*	*	*	*	*	*	*	*	*	*	*	*	*
!	!	!	!	!LO:TX:a:t=Corni	!	!	!	!	!	!	!	!LO:TX:t=P:problem=skreślona pauza 8	!	!	!	!	!	!	!	!	!	!	!	!	!
8G\L	.	8G\Lyy	.	8d/])	8d\	.	8d/]	8d\]	.	8G\L	.	8G\L	.	8r	.	8r	.	8r	.	8r	.	8r	.	8gg\L	.
8D\	.	8D\yy	.	8r	8ryy	.	4r	4ryy	.	8D\	.	8D\	.	8gg\L 8b\	.	8gg\L	.	8bb\L	.	8g\L	.	8b/L 8d/	.	16bb\L	.
.	.	.	.	.	.	.	.	.	.	.	.	.	.	.	.	.	.	.	.	.	.	.	.	16aa\JJ	.
!	!	!	!	!	!	!	!	!	!	!	!	!	!	!	!	!	!	!LO:TX:t=P:problem=skreślona pauza 8	!	!	!	!LO:TX:t=P:problem=skreślona pauza 8	!	!	!
8G\J	.	8G\Jyy	.	8r	8ryy	.	.	.	.	8G\J	.	8G\J	.	8gg\J 8b\	.	8gg\J	.	8bb\J	.	8g\J	.	8b/J 8d/	.	8gg\	.
*	*	*	*	*v	*v	*	*	*	*	*	*	*	*	*	*	*	*	*	*	*	*	*	*	*	*
*	*	*	*	*	*	*v	*v	*	*	*	*	*	*	*	*	*	*	*	*	*	*	*	*	*
=22	=22	=22	=22	=22	=22	=22	=22	=22	=22	=22	=22	=22	=22	=22	=22	=22	=22	=22	=22	=22	=22	=22	=22
8r	.	8ryy	.	8r	.	8r	.	8r	.	8r	.	8r	.	8r	.	16.bb\LL	.	8r	.	8r	.	16.bb\LL	.
.	.	.	.	.	.	.	.	.	.	.	.	.	.	.	.	32bb\JJk	.	.	.	.	.	32bb\JJk	p
=23	=23	=23	=23	=23	=23	=23	=23	=23	=23	=23	=23	=23	=23	=23	=23	=23	=23	=23	=23	=23	=23	=23	=23
!	!	!	!	!	!	!	!	!	!	!	!LO:DY:rj	!	!	!	!	!	!	!	!	!	!	!	!
8r	.	8ryy	.	8r	.	2r	.	8r	.	[2B\	p	8r	.	8r	.	8b\	.	8r	.	8r	p	8b\	.
!	!	!	!	!	!	!	!	!	!LO:DY:rj	!	!	!	!	!	!	!	!	!	!	!	!	!	!
8D#X\L	.	8D#X\Lyy	.	8f#\L 8d#X\	.	.	.	(8D#X'\L	p	.	.	(16ff#\LL 16dd#X\	.	(16ff#\LL	.	8r	.	8f#\L	.	8a/L 8g/	.	8r	.
.	.	.	.	.	.	.	.	.	.	.	.	16gg\JJ 16ee\	.	16gg\JJ	.	.	.	.	.	.	.	.	.
8D#\J	.	8D#\Jyy	.	8f#\J 8d#\	.	.	.	8D#'\J)	.	.	.	8aa\ 8ff#\)	.	8aa\)	.	8r	.	8f#\J	.	8a/J 8g/	.	8r	.
8r	.	8ryy	.	8r	.	.	.	8ryy	.	.	.	8r	.	8r	.	16.bb\LL	.	8r	.	8r	.	16.bb\LL	.
.	.	.	.	.	.	.	.	.	.	.	.	.	.	.	.	32bb\JJk	.	.	.	.	.	32bb\JJk	.
=24	=24	=24	=24	=24	=24	=24	=24	=24	=24	=24	=24	=24	=24	=24	=24	=24	=24	=24	=24	=24	=24	=24	=24
*	*	*	*	*^	*	*	*	*	*	*	*	*	*	*	*	*	*	*	*	*	*	*	*
8r	.	8ryy	.	8r	8r	.	2r	.	8r	.	2B\_	.	8r	.	8r	.	8gg\	.	8r	.	8r	.	8gg\	.
8E\L	.	8E\Lyy	.	8e/L	8e\L	.	.	.	(8E'\L	.	.	.	(16gg\LL 16ee\	.	(16gg\LL	.	8r	.	8e\L	.	8b/L 8g/	.	8r	.
.	.	.	.	.	.	.	.	.	.	.	.	.	16aa\JJ 16ff#\	.	16aa\JJ	.	.	.	.	.	.	.	.	.
8E\J	.	8E\Jyy	.	8e/J	8e\J	.	.	.	8E'\J)	.	.	.	8bb\ 8gg\)	.	8bb\)	.	8r	.	8e\J	.	8b/J 8g/	.	8r	.
8r	.	8ryy	.	8r	8r	.	.	.	8r	.	.	.	8r	.	8r	.	16.ee\LL	.	8r	.	8r	.	16.ee\LL	.
.	.	.	.	.	.	.	.	.	.	.	.	.	.	.	.	.	32ee\JJk	.	.	.	.	.	32ee\JJk	.
=25	=25	=25	=25	=25	=25	=25	=25	=25	=25	=25	=25	=25	=25	=25	=25	=25	=25	=25	=25	=25	=25	=25	=25	=25
.	.	.	.	.	.	.	.	.	.	.	.	.	.	.	.	.	8qee/	.	.	.	.	.	(8qee/	.
8F#\	.	8F#\yy	.	8r	8r	.	2r	.	8F#\	.	2B\]	.	8r	.	8r	.	8dd#X\L	.	8r	.	8r	.	8dd#X\L)	.
!	!	!	!	!	!	!	!	!	!	!	!	!	!LO:TX:t=P:problem=zapis niejednoznaczny w taktach 27-28	!	!	!	!	!	!	!	!	!	!	!
8r	.	8ryy	.	8f#/	8d#X\	.	.	.	8r	.	.	.	8aa\ 8b\	.	8aa\	.	8cc#X\	.	8d\	.	8b/ 8a/	.	8cc#X\	.
8BB/	.	8BB/yy	.	8r	8r	.	.	.	8BB/	.	.	.	8r	.	8r	.	8dd#\	.	8r	.	8r	.	8dd#\	.
8r	.	8ryy	.	8f#/	8d#\	.	.	.	8r	.	.	.	8aa\ 8b\	.	8aa\	.	8b\J	.	8f#\	.	8b/ 8a/	.	8b\J	.
=26	=26	=26	=26	=26	=26	=26	=26	=26	=26	=26	=26	=26	=26	=26	=26	=26	=26	=26	=26	=26	=26	=26	=26	=26
.	.	.	.	.	.	.	.	.	.	.	.	.	.	.	.	.	8qccn/	.	.	.	.	.	(>8qccn/	>
8E\L	.	8E\Lyy	.	8r	8r	.	2r	.	8E'\L	.	(4cn\	>	8r	.	8r	.	(4cccn\	.	8r	.	8r	.	(4ccc\)	.
8D#X^<\	.	8D#X^<\yy	.	8e/L	8e\L	.	.	.	(8D#X\	>	.	.	8gg\L 8b\	.	8gg\L	.	.	.	8e\L	.	8b/L 8g/	.	.	.
8E\J	.	8E\Jyy	.	8e/J	8e\J	.	.	.	8E\J)	]	8B\)	]	8gg\J 8b\	.	8gg\J	.	8bb\)	.	8e\J	.	8b/J 8g/	.	8bb\)	]
!	!	!	!	!	!	!	!	!	!	!	!	!	!	!	!	!	!	!LO:DY:rj	!	!	!	!	!	!LO:DY:rj
8r	.	8ryy	.	8r	8r	.	.	.	8r	.	8r	f	8r	.	8r	.	16.aa\LL	f	8r	.	8r	.	16.aa\LL	ff
.	.	.	.	.	.	.	.	.	.	.	.	.	.	.	.	.	32aa\JJk	.	.	.	.	.	32aa\JJk	.
*	*	*	*	*v	*v	*	*	*	*	*	*	*	*	*	*	*	*	*	*	*	*	*	*	*
=27	=27	=27	=27	=27	=27	=27	=27	=27	=27	=27	=27	=27	=27	=27	=27	=27	=27	=27	=27	=27	=27	=27	=27
8r	.	8ryy	.	8r	.	2r	.	8r	.	[2A\	.	8r	.	8r	f	8a/	.	8r	.	8r	.	8a/	.
!	!	!	!	!	!LO:DY:rj	!	!	!	!	!	!	!	!	!	!	!	!	!	!	!	!LO:DY:rj	!	!
(8C#X'/L	.	(8C#X'/Lyy	.	8e/L 8A/	f	.	.	8C#X/L	f	.	.	(16ee\LL 16cc#X\	.	(16ee\LL	.	8r	.	8e\L	.	8a/L 8g/	ff	8r	.
.	.	.	.	.	.	.	.	.	.	.	.	16ff#\JJ 16dd\	.	16ff#\JJ	.	.	.	.	.	.	.	.	.
8C#'/J)	.	8C#'/J)yy	.	8e/J 8A/	.	.	.	8C#/J	.	.	.	8gg\ 8ee\)	.	8gg\)	.	8r	.	8e\J	.	8a/J 8g/	.	8r	.
8r	.	8ryy	.	8r	.	.	.	8r	.	.	.	8r	.	8r	.	16.aa\LL	.	8r	.	8r	.	16.aa\LL	.
.	.	.	.	.	.	.	.	.	.	.	.	.	.	.	.	32aa\JJk	.	.	.	.	.	32aa\JJk	.
=28	=28	=28	=28	=28	=28	=28	=28	=28	=28	=28	=28	=28	=28	=28	=28	=28	=28	=28	=28	=28	=28	=28	=28
8r	.	8ryy	.	8r	.	2r	.	8r	.	2A\_	.	8r	.	8r	.	8ff#\	.	8r	.	8r	.	8ff#\	.
8D\L	.	8D\Lyy	.	8f#\L 8d\	.	.	.	8D/L	.	.	.	(16ff#\LL 16dd\	.	(16ff#\LL	.	8r	.	8d\L	.	8a/L 8f#/	.	8r	.
.	.	.	.	.	.	.	.	.	.	.	.	16gg\JJ 16ee\	.	16gg\JJ	.	.	.	.	.	.	.	.	.
8D\J	.	8D\Jyy	.	8f#\J 8d\	.	.	.	8D/J	.	.	.	8aa\ 8ff#\)	.	8aa\)	.	8r	.	8d\J	.	8a/J 8f#/	.	8r	.
8r	.	8ryy	.	8r	.	.	.	8r	.	.	.	8r	.	8r	.	16.aa\LL	.	8r	.	8r	.	16.aa\LL	.
.	.	.	.	.	.	.	.	.	.	.	.	.	.	.	.	32aa\JJk	.	.	.	.	.	32aa\JJk	.
=29	=29	=29	=29	=29	=29	=29	=29	=29	=29	=29	=29	=29	=29	=29	=29	=29	=29	=29	=29	=29	=29	=29	=29
.	.	.	.	.	.	.	.	.	.	.	.	.	.	.	.	(8qaa/	.	.	.	.	.	(8qaa/	.
*	*	*	*	*	*	*^	*	*	*	*	*	*	*	*	*	*	*	*	*	*	*	*	*
8E\	.	8E\yy	.	8r	.	8r	8ryy	.	8E\	.	(2A\]	.	8r	.	8r	.	8gg\L)	.	8r	.	8r	.	8gg\L)	.
8r	.	8ryy	.	8e/ 8A/	.	8g/	8g\	.	8r	.	.	.	8gg\ 8ee\	.	8gg\	.	8ff#\	.	8c#X\	.	8a/ 8g/	.	8ff#'\	.
8AA/	.	8AA/yy	.	8r	.	8r	8r	.	8AA/	.	.	.	8r	.	8r	.	8gg\	.	8r	.	8r	.	8gg'\	.
8r	.	8ryy	.	8e/ 8A/	.	8g/	8g\	.	8r	.	.	.	8gg\ 8ee\	.	8gg\	.	8ee\J	.	8c#\	.	8a/ 8g/	.	8ee'\J	.
=30	=30	=30	=30	=30	=30	=30	=30	=30	=30	=30	=30	=30	=30	=30	=30	=30	=30	=30	=30	=30	=30	=30	=30	=30
!	!LO:DY:t=f&colon;	!	!LO:DY:t=f&colon;	!	!	!	!	!	!	!	!	!	!	!	!	!	!	!	!	!	!	!	!	!
8D\L	f	8D\Lyy	f	8r	.	8r	8r	.	8D\L	.	8F#\L)	.	8r	.	8r	.	8dd\L	.	8r	.	8r	.	8dd\L	.
!	!	!	!	!	!	!	!	!	!	!	!	!	!	!	!	!	!	!	!	!LO:DY:rj	!	!LO:DY:rj	!	!
8d^\J	.	8d^\Jyy	.	8f#\ 8d\	.	8f#X/	8f#\	.	8D'^<\J	.	8D\J|	.	8ff#\ 8dd\	.	8ff#'\	.	8.cccn\J	.	8d^\	f	8a/ 8f#^/	f	(8.cccn^<\J	.
4r	.	4ryy	.	4r	.	4r	4ryy	.	4r	.	4r	.	4r	.	4r	.	.	.	4r	.	4r	.	.	.
!	!	!	!	!	!	!	!	!	!	!	!	!	!	!	!	!	!	!	!	!	!	!	!LO:TX:b:t=rallent&colon;	!
.	.	.	.	.	.	.	.	.	.	.	.	.	.	.	.	.	16bb'\LL	.	.	.	.	.	16bb'\LL	.
.	.	.	.	.	.	.	.	.	.	.	.	.	.	.	.	.	16aa'\	.	.	.	.	.	16aa'\	.
.	.	.	.	.	.	.	.	.	.	.	.	.	.	.	.	.	16gg'\JJ	.	.	.	.	.	16gg'\JJ	.
*	*	*	*	*	*	*v	*v	*	*	*	*	*	*	*	*	*	*	*	*	*	*	*	*	*
=31	=31	=31	=31	=31	=31	=31	=31	=31	=31	=31	=31	=31	=31	=31	=31	=31	=31	=31	=31	=31	=31	=31	=31
4r	.	4ryy	.	4r	.	4r	.	4r	.	4r	.	4r	.	4r	.	16ff#'\LL	.	4r	.	4r	.	16ff#'\LL	.
.	.	.	.	.	.	.	.	.	.	.	.	.	.	.	.	16ee'\	.	.	.	.	.	16ee'\	.
.	.	.	.	.	.	.	.	.	.	.	.	.	.	.	.	16dd'\	.	.	.	.	.	16dd'\	.
.	.	.	.	.	.	.	.	.	.	.	.	.	.	.	.	16cc#X'\JJ	.	.	.	.	.	16cc#X'\JJ	.
8r;	.	8r;yy	.	8r;	.	8r;	.	8r;	.	8r;	.	8r;	.	8r;	.	8ccn;\	.	8r;	.	8r;	.	8ccn;\)	.
!	!	!	!	!	!	!	!	!	!	!	!	!	!	!	!	!LO:TX:a:i:t=Solo	!	!	!	!	!	!LO:TX:b:t=a Tempo	!
8r	.	8ryy	.	8r	.	8r	.	8r	.	8r	.	8r	.	8r	.	16b\LL	.	8r	.	8r	.	8r	.
.	.	.	.	.	.	.	.	.	.	.	.	.	.	.	.	16cc\JJ	.	.	.	.	.	.	.
*	*	*	*	*	*	*	*	*	*	*clefC4	*	*tremolo	*	*tremolo	*	*	*	*	*	*	*	*	*
!!LO:PB:g=original
=32	=32	=32	=32	=32	=32	=32	=32	=32	=32	=32	=32	=32	=32	=32	=32	=32	=32	=32	=32	=32	=32	=32	=32
*	*	*	*	*	*	*	*	*	*	*tremolo	*	*	*	*	*	*	*	*	*	*	*	*	*
!	!	!LO:TX:a:t=V&colon;C&colon;	!	!LO:TX:t=P:problem=znak powtórki, chyba po pierwszej waltorni	!	!	!	!	!	!	!	!	!	!	!	!	!	!	!	!	!	!	!
!	!	!LO:TX:b:t=pizzi&colon;	!	!LO:TX:a:t=Corni	!	!	!	!	!	!	!	!LO:TX:t=P:problem=4 kropki art.	!LO:DY:rj	!	!LO:DY:rj	!	!	!	!	!LO:TX:a:i:t=pizzi&colon;	!	!LO:TX:t=P:problem=takty 34-37 prawie nieczytelne	!
2r	.	8G\	.	2ryy	.	2r	.	2r	.	(8g'\L	pp	8b/L 8g/	pp	8dd\L	pp	8dd'\L	.	8r	.	8r	.	8dd'\L	.
.	.	8r	.	.	.	.	.	.	.	8d'\	.	8b/ 8g/	.	8dd\	.	(16dd\L	.	8g\	.	8b/ 8d/	.	(16dd\L	.
.	.	.	.	.	.	.	.	.	.	.	.	.	.	.	.	16b\JJ)	.	.	.	.	.	16b\JJ)	.
.	.	8G\	.	.	.	.	.	.	.	8g'\	.	8b/ 8g/	.	8dd\	.	8gg'\L	.	8r	.	8r	.	8gg'\L	.
.	.	8r	.	.	.	.	.	.	.	8d'\J	.	8b/J 8g/	.	8dd\J	.	(16gg\L	.	8g\	.	8b/ 8d/	.	(16gg\L	.
.	.	.	.	.	.	.	.	.	.	.	.	.	.	.	.	16dd\JJ)	.	.	.	.	.	16dd\JJ)	.
=33	=33	=33	=33	=33	=33	=33	=33	=33	=33	=33	=33	=33	=33	=33	=33	=33	=33	=33	=33	=33	=33	=33	=33
*	*	*	*	*	*	*	*	*	*	*rep	*	*	*	*	*	*	*	*	*	*	*	*	*
*	*	*	*	*	*	*	*	*	*	*	*	*	*	*	*	*	*	*	*	*	*	*^	*
!	!	!	!	!	!	!	!	!	!	!	!	!	!	!	!	!	!	!	!	!	!	!LO:TX:b:t=pizzi&colon;	!	!
2r	.	8G\	.	8r	.	8r	.	2r	.	8g'\L	.	8b/L 8g/	.	8dd\L	.	4.bb\	.	8r	.	8r	.	4.bb\	16r	.
.	.	.	.	.	.	.	.	.	.	.	.	.	.	.	.	.	.	.	.	.	.	.	16g\LL	.
.	.	8r	.	8d/L 8D'/	.	8g/L 8G/	.	.	.	8d'\	.	8b/ 8g/	.	8dd\	.	.	.	8g\L	.	8b/L 8d/	.	.	16b\	.
.	.	.	.	.	.	.	.	.	.	.	.	.	.	.	.	.	.	.	.	.	.	.	16dd\JJ	.
.	.	4r	.	8d/J 8D'/	.	8g/J 8G/	.	.	.	8g'\	.	8b/ 8g/	.	8dd\	.	.	.	8g\J	.	8b/J 8d/	.	.	8gg\	.
.	.	.	.	8r	.	8r	.	.	.	8d'\J	.	8b/J 8g/	.	8dd\J	.	16aa\LL	.	8r	.	8r	.	(16aa\LL	8r	.
.	.	.	.	.	.	.	.	.	.	.	.	.	.	.	.	16gg\JJ	.	.	.	.	.	16gg\JJ)	.	.
*	*	*	*	*	*	*	*	*	*	*Xrep	*	*	*	*	*	*	*	*	*	*	*	*	*	*
*	*	*	*	*	*	*	*	*	*	*	*	*	*	*	*	*	*	*	*	*	*	*v	*v	*
=34	=34	=34	=34	=34	=34	=34	=34	=34	=34	=34	=34	=34	=34	=34	=34	=34	=34	=34	=34	=34	=34	=34	=34
*	*	*	*	*	*	*	*	*	*	*rep	*	*	*	*	*	*	*	*	*	*	*	*	*
2r	.	8G\	.	2r	.	2r	.	2r	.	8g'\L)	.	8b/L 8g/	.	8dd\L	.	16gg\LL	.	8r	.	8r	.	(16gg\LL	.
.	.	.	.	.	.	.	.	.	.	.	.	.	.	.	.	16ff#\	.	.	.	.	.	16ff#\)	.
.	.	8r	.	.	.	.	.	.	.	8d'\	.	8b/ 8g/	.	8dd\	.	16ff#\	.	8g\	.	8b/ 8d/	.	(16ff#\	.
.	.	.	.	.	.	.	.	.	.	.	.	.	.	.	.	16ee\JJ	.	.	.	.	.	16ee\JJ)	.
.	.	8G\	.	.	.	.	.	.	.	8g'\	.	8b/ 8g/	.	8dd\	.	16ee\LL	.	8r	.	8r	.	(16ee\LL	.
.	.	.	.	.	.	.	.	.	.	.	.	.	.	.	.	16dd\	.	.	.	.	.	16dd\)	.
.	.	8r	.	.	.	.	.	.	.	8d'\J	.	8b/J 8g/	.	8dd\J	.	16dd\	.	8g\	.	8b/ 8d/	.	(16dd\	.
.	.	.	.	.	.	.	.	.	.	.	.	.	.	.	.	16cc#X\JJ	.	.	.	.	.	16cc#X\JJ)	.
*	*	*	*	*	*	*	*	*	*	*Xrep	*	*	*	*	*	*	*	*	*	*	*	*	*
=35	=35	=35	=35	=35	=35	=35	=35	=35	=35	=35	=35	=35	=35	=35	=35	=35	=35	=35	=35	=35	=35	=35	=35
*	*	*	*	*	*	*	*	*	*	*Xtremolo	*	*	*	*	*	*	*	*	*	*	*	*	*
!	!	!	!	!	!	!	!	!	!	!	!	!	!	!LO:TX:t=P:problem=zapis poprawiany	!	!	!	!	!	!	!	!	!
2r	.	8D\	.	2r	.	2r	.	2r	.	8f#\L	.	8cc/L 8a/	.	8dd\L	.	8.ee\L	.	8r	.	8r	.	8.ee\L	.
.	.	8r	.	.	.	.	.	.	.	8d\J	.	8cc/ 8a/	.	8dd\	.	.	.	8f#\L	.	8a/L 8d/	.	.	.
.	.	.	.	.	.	.	.	.	.	.	.	.	.	.	.	16dd\Jk	.	.	.	.	.	16dd\Jk	.
.	.	4r	.	.	.	.	.	.	.	8f#\	.	8cc/J 8a/	.	8dd\J	.	8a/	.	8f#\J	.	8a/J 8d/	.	8a/	.
.	.	.	.	.	.	.	.	.	.	8r	.	8r	.	8r	.	16a/LL	.	8r	.	8r	.	8r	.
.	.	.	.	.	.	.	.	.	.	.	.	.	.	.	.	16b/JJ	.	.	.	.	.	.	.
=36	=36	=36	=36	=36	=36	=36	=36	=36	=36	=36	=36	=36	=36	=36	=36	=36	=36	=36	=36	=36	=36	=36	=36
*	*	*	*	*	*	*	*	*	*	*tremolo	*	*	*	*	*	*	*	*	*	*	*	*	*
2r	.	8D\	.	2r	.	2r	.	2r	.	(8f#'\L	.	8cc/L 8a/	.	8dd\L	.	8ccn\L	.	8r	.	8r	.	2r	.
.	.	8r	.	.	.	.	.	.	.	8d'\	.	8cc/ 8a/	.	8dd\	.	16cc\L	.	8f#\	.	8a/ 8d/	.	.	.
.	.	.	.	.	.	.	.	.	.	.	.	.	.	.	.	16a\JJ	.	.	.	.	.	.	.
.	.	8D\	.	.	.	.	.	.	.	8f#'\	.	8cc/ 8a/	.	8dd\	.	8ff#\L	.	8r	.	8r	.	.	.
.	.	8r	.	.	.	.	.	.	.	8d'\J	.	8cc/J 8a/	.	8dd\J	.	16ff#\L	.	8f#\	.	8a/ 8d/	.	.	.
.	.	.	.	.	.	.	.	.	.	.	.	.	.	.	.	16dd\JJ	.	.	.	.	.	.	.
=37	=37	=37	=37	=37	=37	=37	=37	=37	=37	=37	=37	=37	=37	=37	=37	=37	=37	=37	=37	=37	=37	=37	=37
*	*	*	*	*^	*	*^	*	*	*	*	*	*	*	*	*	*	*	*	*	*	*	*	*
2r	.	8D\	.	8r	8ryy	.	8r	8ryy	.	2r	.	8f#'\L	.	8cc/L 8a/	.	8dd\L	.	4.aa\	.	8r	.	8r	.	16r	.
.	.	.	.	.	.	.	.	.	.	.	.	.	.	.	.	.	.	.	.	.	.	.	.	16a\LL	.
.	.	8r	.	8d/'L	8d\L	.	8d/L	8d\L	.	.	.	8d'\	.	8cc/ 8a/	.	8dd\	.	.	.	8f#\L	.	8a/L 8d/	.	16cc\	.
.	.	.	.	.	.	.	.	.	.	.	.	.	.	.	.	.	.	.	.	.	.	.	.	16ff#\JJ	.
.	.	4r	.	8d/'J	8d\J	.	8d/J	8d\J	.	.	.	8f#'\	.	8cc/ 8a/	.	8dd\	.	.	.	8f#\J	.	8a/J 8d/	.	8aa\	.
.	.	.	.	8r	8ryy	.	8r	8ryy	.	.	.	8d'\J	.	8cc/J 8a/	.	8dd\J	.	16gg\LL	.	8r	.	8r	.	8r	.
.	.	.	.	.	.	.	.	.	.	.	.	.	.	.	.	.	.	16ff#\JJ	.	.	.	.	.	.	.
*	*	*	*	*v	*v	*	*	*	*	*	*	*	*	*	*	*	*	*	*	*	*	*	*	*	*
*	*	*	*	*	*	*v	*v	*	*	*	*	*	*	*	*	*	*	*	*	*	*	*	*	*
=38	=38	=38	=38	=38	=38	=38	=38	=38	=38	=38	=38	=38	=38	=38	=38	=38	=38	=38	=38	=38	=38	=38	=38
2r	.	8D\	.	2r	.	2r	.	2r	.	8f#'\L)	.	8cc/L 8a/	.	8dd\L	.	16ff#\LL	.	8r	.	8r	.	2r	.
.	.	.	.	.	.	.	.	.	.	.	.	.	.	.	.	16ee\	.	.	.	.	.	.	.
.	.	8r	.	.	.	.	.	.	.	8d'\	.	8cc/ 8a/	.	8dd\	.	16ee\	.	8f#\	.	8a/ 8d/	.	.	.
.	.	.	.	.	.	.	.	.	.	.	.	.	.	.	.	16dd\JJ	.	.	.	.	.	.	.
.	.	8D\	.	.	.	.	.	.	.	8f#'\	.	8cc/ 8a/	.	8dd\	.	16dd\LL	.	8r	.	8r	.	.	.
.	.	.	.	.	.	.	.	.	.	.	.	.	.	.	.	16cc\	.	.	.	.	.	.	.
.	.	8r	.	.	.	.	.	.	.	8d'\J	.	8cc/J 8a/	.	8dd\J	.	16cc\	.	8f#\	.	8cc/ 8d/	.	.	.
.	.	.	.	.	.	.	.	.	.	.	.	.	.	.	.	16a\JJ	.	.	.	.	.	.	.
=39	=39	=39	=39	=39	=39	=39	=39	=39	=39	=39	=39	=39	=39	=39	=39	=39	=39	=39	=39	=39	=39	=39	=39
*	*	*	*	*	*	*	*	*	*	*Xtremolo	*	*	*	*	*	*	*	*	*	*	*	*	*
2r	.	8G\	.	2r	.	2r	.	2r	.	8g'\L	.	8b/L 8g/	.	8dd\L	.	8.cc\L	.	8r	.	8r	.	4r	.
.	.	8r	.	.	.	.	.	.	.	8d'\	.	8b/ 8g/	.	8dd\	.	.	.	8g\L	.	8b/L 8d/	.	.	.
.	.	.	.	.	.	.	.	.	.	.	.	.	.	.	.	16b\Jk	.	.	.	.	.	.	.
.	.	4r	.	.	.	.	.	.	.	8g'\J	.	8b/J 8g/	.	8dd\J	.	8g/	.	8g\J	.	8b/J 8d/	.	8r	.
!	!	!	!	!	!	!	!	!	!	!	!	!	!	!	!	!	!	!	!	!	!	!LO:TX:a:t=l'arco	!LO:DY:rj
.	.	.	.	.	.	.	.	.	.	(16B\LL	.	8r	.	8r	.	(16b\LL	.	8r	.	8r	.	(16b\LL	f
.	.	.	.	.	.	.	.	.	.	16c\JJ)	.	.	.	.	.	16cc\JJ)	.	.	.	.	.	16cc\JJ)	.
=40	=40	=40	=40	=40	=40	=40	=40	=40	=40	=40	=40	=40	=40	=40	=40	=40	=40	=40	=40	=40	=40	=40	=40
*	*	*	*	*^	*	*	*	*	*	*	*	*	*	*	*	*	*	*	*	*	*	*	*
*	*	*	*	*	*	*	*	*	*	*	*	*	*	*	*	*	*	*	*tremolo	*	*	*	*	*
!	!	!	!	!	!	!	!	!	!	!	!	!	!	!	!	!	!	!	!	!	!LO:TX:t=P:problem=całotaktowy łuk	!	!	!
!	!	!LO:TX:a:t=l'arco	!LO:DY:rj	!	!	!	!	!	!	!LO:DY:rj	!	!	!	!	!LO:TX:t=P:problem=zapis poprawiany	!	!	!	!	!	!LO:TX:a:t=arco	!LO:DY:rj	!	!
8G\L	.	8G\L	f	8d/L	8d\L	.	8g/L 8G/	.	(4G\	f	8d'\L	.	[2gg\ [2b\	.	(2gg\	.	8dd'\L	.	16g\L	f	(16g/LL	f	8dd'\L	.
.	.	.	.	.	.	.	.	.	.	.	.	.	.	.	.	.	.	.	16g\	.	16b/	.	.	.
8G\	.	8G\	.	16d/L	16d\L	.	16g/L 16G/	.	.	.	(16d\L	.	.	.	.	.	(16dd\L	.	16g\	.	16g/	.	(16dd\L	.
.	.	.	.	16d/JJ	16d\JJ	.	16g/JJ 16G/	.	.	.	16B\JJ)	.	.	.	.	.	16b\JJ)	.	16g\J	.	16b/JJ	.	16b\JJ)	.
*	*	*	*	*	*	*	*	*	*	*	*	*	*	*	*	*	*	*	*	*	*rep	*	*	*
8F#\	.	8F#\	.	8d/	8d\	.	8g/ 8G/	.	4F#\	.	8g'\L	.	.	.	.	.	8gg'\L	.	8f#\L	.	16g/LL	.	8gg'\L	.
.	.	.	.	.	.	.	.	.	.	.	.	.	.	.	.	.	.	.	.	.	16b/	.	.	.
8F#\J	.	8F#\J	.	8r	8r	.	8r	.	.	.	(16g\L	.	.	.	.	.	(16gg\L	.	8f#\J	.	16g/	.	(16gg\L	.
.	.	.	.	.	.	.	.	.	.	.	16d\JJ)	.	.	.	.	.	16dd\JJ)	.	.	.	16b/JJ)	.	16dd\JJ)	.
*	*	*	*	*	*	*	*	*	*	*	*	*	*	*	*	*	*	*	*	*	*Xrep	*	*	*
*	*	*	*	*v	*v	*	*	*	*	*	*	*	*	*	*	*	*	*	*	*	*	*	*	*
=41	=41	=41	=41	=41	=41	=41	=41	=41	=41	=41	=41	=41	=41	=41	=41	=41	=41	=41	=41	=41	=41	=41	=41
!	!	!	!	!LO:TX:t=P:problem=zapis poprawiany	!	!	!	!	!	!	!	!LO:S:s=2:note:problem=note-level slur	!	!	!	!	!	!	!	!LO:TX:t=P:problem=całotaktowy łuk	!	!	!
8E\L	.	8E\L	.	2r	.	8g/L 8G/	.	4E\	.	4.b\	.	(2gg]\ (>2b\]	.	(2gg\)	.	4.bb\	.	8e\L	.	(16g/LL	.	4.bb\	.
.	.	.	.	.	.	.	.	.	.	.	.	.	.	.	.	.	.	.	.	16b/	.	.	.
8E\	.	8E\	.	.	.	16g/L 16G/	.	.	.	.	.	.	.	.	.	.	.	8e\	.	16g/	.	.	.
.	.	.	.	.	.	16g/JJ 16G/	.	.	.	.	.	.	.	.	.	.	.	.	.	16b/JJ	.	.	.
*	*	*	*	*	*	*	*	*	*	*	*	*	*	*	*	*	*	*	*	*rep	*	*	*
8D\	.	8D\	.	.	.	8g/ 8G/	.	4D\)	.	.	.	.	.	.	.	.	.	8e\	.	16g/LL	.	.	.
.	.	.	.	.	.	.	.	.	.	.	.	.	.	.	.	.	.	.	.	16b/	.	.	.
8D\J	.	8D\J	.	.	.	8r	.	.	.	16a\LL	.	.	.	.	.	(16aa\LL	.	8e\J	.	16g/	.	(16aa\LL	.
.	.	.	.	.	.	.	.	.	.	16g\JJ	.	.	.	.	.	16gg\JJ)	.	.	.	16b/JJ)	.	16gg\JJ)	.
*	*	*	*	*	*	*	*	*	*	*	*	*	*	*	*	*	*	*	*	*Xrep	*	*	*
=42	=42	=42	=42	=42	=42	=42	=42	=42	=42	=42	=42	=42	=42	=42	=42	=42	=42	=42	=42	=42	=42	=42	=42
8C\L	.	8C\L	.	8r	.	2r	.	8C\	.	16f#\LL	.	8aa\) 8cc\)	.	8ee\)	.	16ff#\LL	.	8e\L	.	16e/LL	.	(16ff#\LL	.
.	.	.	.	.	.	.	.	.	.	16e\JJ	.	.	.	.	.	16ee\JJ	.	.	.	16a/	.	16ee\JJ)	.
8E\	.	8E\	.	16e/LL 16A/	.	.	.	8r	.	4e'^<\	.	8r	.	8r	.	4ccc\	.	8e\	.	16e/	.	4ccc^<|\	.
.	.	.	.	16e/JJ 16A/	.	.	.	.	.	.	.	.	.	.	.	.	.	.	.	16a/JJ	.	.	.
*	*	*	*	*	*	*	*	*	*	*	*	*	*	*	*	*	*	*	*	*rep	*	*	*
!	!	!	!	!	!	!	!	!	!	!	!	!LO:S:s=2:note:problem=note-level slur	!	!	!	!	!	!	!	!	!	!	!
8A\	.	8A\	.	8e/ 8A/	.	.	.	(4C\	.	.	.	(4aa^<\ (>4cc\	.	(4ee\	.	.	.	8e\	.	16e/LL	.	.	.
.	.	.	.	.	.	.	.	.	.	.	.	.	.	.	.	.	.	.	.	16a/	.	.	.
8C\J	.	8C\J	.	8r	.	.	.	.	.	(16d\LL	.	.	.	.	.	16bb\LL	.	8e\J	.	16e/	.	(16bb\LL	.
.	.	.	.	.	.	.	.	.	.	16c\JJ	.	.	.	.	.	16aa\JJ	.	.	.	16a/JJ	.	16aa\JJ)	.
*	*	*	*	*	*	*	*	*	*	*	*	*	*	*	*	*	*	*	*	*Xrep	*	*	*
=43	=43	=43	=43	=43	=43	=43	=43	=43	=43	=43	=43	=43	=43	=43	=43	=43	=43	=43	=43	=43	=43	=43	=43
*	*	*	*	*^	*	*^	*	*	*	*	*	*	*	*	*	*	*	*	*	*	*	*	*
8D\L	.	8D\L	.	4r	4ryy	.	4r	4ryy	.	8D\)	.	8B\L)	.	8gg)\ 8b\)	.	8dd\)	.	16gg\LL	.	8d\L	.	16d/LL	.	16gg\LL	.
.	.	.	.	.	.	.	.	.	.	.	.	.	.	.	.	.	.	16ddd\	.	.	.	16b/	.	16b\	.
8G\	.	8G\	.	.	.	.	.	.	.	8r	.	16e\L	.	8r	.	8r	.	16eee\	.	8d\	.	16g/	.	16ee\	.
.	.	.	.	.	.	.	.	.	.	.	.	16d\JJ	.	.	.	.	.	16ddd\JJ	.	.	.	16b/JJ	.	16dd\JJ	.
*	*	*	*	*	*	*	*	*	*	*	*	*	*	*	*	*	*	*	*	*	*	*rep	*	*	*
!	!	!	!	!	!	!LO:DY:rj	!	!	!	!	!	!	!	!	!	!	!	!	!	!	!	!	!	!LO:TX:t=P:problem=zapis wysoce niewyraźny - chyba ktoś tam chciał mini repetycję, a później zmienił zdanie	!
8B\	.	8B\	.	4d/	4d\	f	4g/	4g^\	.	[4D\	.	16e-X\LL	.	4gg^<\ 4b\	.	4dd^<\	.	16eee-X\LL	.	8d\	.	16d/LL	.	16ee-X^<\LL	.
.	.	.	.	.	.	.	.	.	.	.	.	16d\	.	.	.	.	.	16ddd\	.	.	.	16b/	.	16dd\	.
8d\J	.	8d\J	.	.	.	.	.	.	.	.	.	16en\	.	.	.	.	.	16eeen\	.	8d\J	.	16g/	.	16een\^<	.
.	.	.	.	.	.	.	.	.	.	.	.	16d\JJ	.	.	.	.	.	16ddd\JJ	.	.	.	16b/JJ	.	16dd\JJ	.
*	*	*	*	*	*	*	*	*	*	*	*	*	*	*	*	*	*	*	*	*	*	*Xrep	*	*	*
!!LO:PB:g=original
=44	=44	=44	=44	=44	=44	=44	=44	=44	=44	=44	=44	=44	=44	=44	=44	=44	=44	=44	=44	=44	=44	=44	=44	=44	=44
!	!	!	!	!LO:TX:a:t=Corni	!	!	!	!	!	!LO:TX:t=P:problem=brak zakończenia ligatury	!	!	!	!	!	!	!	!	!	!	!	!	!	!LO:TX:t=P:problem=wszystkie partie w taktach 46-55 przesunięte o system niżej	!
8D\L	.	8D\Lyy	.	4r	4ryy	.	4r	4ryy	.	4D\]	.	16G\LL	.	4r	.	4r	.	16gg\LL	.	8d\L	.	16d/LL	.	16g\LL	.
.	.	.	.	.	.	.	.	.	.	.	.	16B\	.	.	.	.	.	16bb\	.	.	.	16b/	.	16b\	.
8G\	.	8G\yy	.	.	.	.	.	.	.	.	.	16e\	.	.	.	.	.	16eee\	.	8d\	.	16g/	.	16ee\	.
.	.	.	.	.	.	.	.	.	.	.	.	16d\JJ	.	.	.	.	.	16ddd\JJ	.	.	.	16b/JJ	.	16dd\JJ	.
*	*	*	*	*	*	*	*	*	*	*	*	*	*	*	*	*	*	*	*	*	*	*rep	*	*	*
8B\	.	8B\yy	.	4d/	4d\	.	4g/	4g\	.	4r	.	(16e-X^<\LL	.	4gg\ 4b\	.	4dd\	.	(16eee-X^<\LL	.	8d\	.	16d/LL	.	16ee-X^<\LL	.
.	.	.	.	.	.	.	.	.	.	.	.	16d\)	.	.	.	.	.	16ddd\)	.	.	.	16b/	.	16dd\	.
8d\J	.	8d\Jyy	.	.	.	.	.	.	.	.	.	(16en^<\	.	.	.	.	.	(16eeen^<\	.	8d\J	.	16g/	.	16een^<\	.
.	.	.	.	.	.	.	.	.	.	.	.	16d\JJ)	.	.	.	.	.	16ddd\JJ)	.	.	.	16b/JJ	.	16dd\JJ	.
*	*	*	*	*	*	*	*	*	*	*	*	*	*	*	*	*	*	*	*	*	*	*Xrep	*	*	*
=45	=45	=45	=45	=45	=45	=45	=45	=45	=45	=45	=45	=45	=45	=45	=45	=45	=45	=45	=45	=45	=45	=45	=45	=45	=45
8D\L	.	8D\Lyy	.	4r	4ryy	.	2r	2ryy	.	4d\ 4D\	.	16F#/LL	.	4r	.	4r	.	16ff#\LL	.	8d\L	.	16d/LL	.	16f#\LL	.
.	.	.	.	.	.	.	.	.	.	.	.	16A/	.	.	.	.	.	16aa\	.	.	.	16cc/	.	16a\	.
8F#\	.	8F#\yy	.	.	.	.	.	.	.	.	.	16e/	.	.	.	.	.	(16eee\	.	8d\	.	16a/	.	(16ee\	.
.	.	.	.	.	.	.	.	.	.	.	.	16d/JJ	.	.	.	.	.	16ddd\JJ)	.	.	.	16cc/JJ	.	16dd^<\JJ)	.
*	*	*	*	*	*	*	*	*	*	*	*	*	*	*	*	*	*	*	*	*	*	*rep	*	*	*
8A\	.	8A\yy	.	4d/	4d\	.	.	.	.	4r	.	(16f#\LL	.	4ff#\ 4a\	.	(4ff#\	.	(16fff#\LL	.	8d\	.	16d/LL	.	(16ff#^<\LL	.
.	.	.	.	.	.	.	.	.	.	.	.	16e\)	.	.	.	.	.	16eee\)	.	.	.	16cc/	.	16dd\)	.
8d\J	.	8d\Jyy	.	.	.	.	.	.	.	.	.	(16g\	.	.	.	.	.	(16ggg\	.	8d\J	.	16a/	.	(16gg^<\	.
.	.	.	.	.	.	.	.	.	.	.	.	16f#\JJ)	.	.	.	.	.	16fff#\JJ)	.	.	.	16cc/JJ	.	(16ff#\JJ)	.
*	*	*	*	*	*	*	*	*	*	*	*	*	*	*	*	*	*	*	*	*	*	*Xrep	*	*	*
*	*	*	*	*	*	*	*v	*v	*	*	*	*	*	*	*	*	*	*	*	*	*	*	*	*	*
=46	=46	=46	=46	=46	=46	=46	=46	=46	=46	=46	=46	=46	=46	=46	=46	=46	=46	=46	=46	=46	=46	=46	=46	=46
8D\L	.	8D\Lyy	.	4r	4ryy	.	2r	.	4D\	.	16a\LL	.	4r	.	16fff#\LL)	.	16aaa\LL	.	8D/L	.	2ryy	.	16aa\LL)	.
.	.	.	.	.	.	.	.	.	.	.	16g\	.	.	.	16eee\	.	16ggg\	.	.	.	.	.	16gg'\	.
8F#\	.	8F#\yy	.	.	.	.	.	.	.	.	16f#\	.	.	.	16ddd\	.	16fff#\	.	8D/	.	.	.	16ff#'\	.
.	.	.	.	.	.	.	.	.	.	.	16e\JJ	.	.	.	16ccc\JJ	.	16eee\JJ	.	.	.	.	.	16ee'\JJ	.
!	!	!	!	!	!	!	!	!	!	!	!	!	!LO:S:s=2:note:problem=note-level slur	!	!	!	!	!	!	!	!	!	!	!
8A\	.	8A\yy	.	4d/	4d\	.	.	.	4r	.	16d\LL	.	(4aa\ (>4cc\	.	16bb\LL	.	16ddd\LL	.	8D/	.	.	.	16dd'\LL	.
.	.	.	.	.	.	.	.	.	.	.	16c\	.	.	.	16aa\	.	16ccc\	.	.	.	.	.	16cc'\	.
8D\J	.	8D\Jyy	.	.	.	.	.	.	.	.	16B\	.	.	.	16gg\	.	16bb\	.	8D/J	.	.	.	16b'\	.
.	.	.	.	.	.	.	.	.	.	.	16A\JJ	.	.	.	16ff#\JJ	.	16aa\JJ	.	.	.	.	.	16a'\JJ	.
=47	=47	=47	=47	=47	=47	=47	=47	=47	=47	=47	=47	=47	=47	=47	=47	=47	=47	=47	=47	=47	=47	=47	=47	=47
*	*	*	*	*	*	*	*	*	*	*	*	*	*Xtremolo	*	*	*	*	*	*Xtremolo	*	*	*	*	*
!	!	!	!	!	!	!	!	!	!	!	!	!	!	!	!	!	!	!	!LO:TX:t=P:problem=mixed beam	!	!	!	!	!
8G\L	.	8G\Lyy	.	8r	8ryy	.	8r	.	8G\L	.	8G/	.	8gg\) 8b\)	.	8gg\	.	8gg\	.	8G/L	.	8b/	.	8g/	.
16D\L	.	16D\Lyy	.	8d/L	8d\L	.	8g/L 8G/	.	16D\L	.	8r	.	8gg\L 8b'\	.	8r	.	8r	.	8g\	.	8gg\L 8b\	.	8r	.
16BB\JJ	.	16BB\JJyy	.	.	.	.	.	.	16BB\JJ	.	.	.	.	.	.	.	.	.	.	.	.	.	.	.
8GG\	.	8GG\yy	.	8d/J	8d\J	.	8g/J 8G/	.	8GG/	.	8r	.	8gg\J 8b'\	.	8r	.	8r	.	8G/J	.	8gg\J 8b\	.	8r	.
!	!	!	!	!	!	!	!	!	!	!	!	!	!	!	!	!	!	!	!	!	!	!	!	!LO:DY:rj
8r	.	8ryy	.	8r	8ryy	.	8r	.	8ryy	.	8r	.	8ryy	.	8ryy	.	8r	.	8r	.	8r	.	8g/	f
=48	=48	=48	=48	=48	=48	=48	=48	=48	=48	=48	=48	=48	=48	=48	=48	=48	=48	=48	=48	=48	=48	=48	=48	=48
*tremolo	*	*tremolo	*	*	*	*	*	*	*tremolo	*	*	*	*	*	*	*	*	*	*tremolo	*	*tremolo	*	*	*
!	!	!	!	!	!	!	!	!	!	!	!	!	!LO:TX:a:t=Oboe	!	!LO:TX:a:t=Fla 2	!LO:DY:rj	!	!	!	!	!	!	!	!
!	!	!	!	!	!	!	!	!	!	!	!	!	!LO:TX:t=P:problem=takty 50-55 zamienione z partią fletu II	!	!LO:TX:t=P:problem=takty 50-55 zamienione z partią oboju	!	!	!	!	!LO:DY:rj	!	!LO:DY:rj	!	!
!	!LO:DY:rj	!	!LO:DY:rj	!	!	!LO:DY:rj	!	!	!	!	!	!	!LO:S:s=2:note:problem=note-level slur	!	!	!	!	!	!	!	!	!	!	!
(8G\L	f	(8G\Lyy	f	(2e/	(2cX\	f	[2g/ [2G/	.	(8G\L	.	2r	.	(2ee\ (>2cc\	.	8gg\L	f	2r	.	8G/L	f	8e/L 8c/	f	8gg'\L	.
8G\	.	8G\yy	.	.	.	.	.	.	8G\	.	.	.	.	.	16gg\L	.	.	.	8G/	.	8e/ 8c/	.	(16gg\L	.
.	.	.	.	.	.	.	.	.	.	.	.	.	.	.	16ee\JJ	.	.	.	.	.	.	.	16ee\JJ)	.
8G\	.	8G\yy	.	.	.	.	.	.	8G\	.	.	.	.	.	8.cc\L	.	.	.	8G/	.	8e/ 8c/	.	8.cc\L	.
8G\J	.	8G\Jyy	.	.	.	.	.	.	8G\J	.	.	.	.	.	.	.	.	.	8G/J	.	8e/J 8c/	.	.	.
.	.	.	.	.	.	.	.	.	.	.	.	.	.	.	16ee\Jk	.	.	.	.	.	.	.	16ee\Jk	.
*	*	*	*	*	*	*	*	*	*Xtremolo	*	*clefF4	*	*	*	*	*	*	*	*	*	*	*	*	*
=49	=49	=49	=49	=49	=49	=49	=49	=49	=49	=49	=49	=49	=49	=49	=49	=49	=49	=49	=49	=49	=49	=49	=49	=49
!	!	!	!	!	!	!	!	!	!	!	!LO:TX:t=P:problem=w tym miejscu fagot pierwszy powinien wrócić do klucza basowego	!	!	!	!	!	!	!	!	!	!	!	!	!
8G\L)	.	8G\L)yy	.	8d/L)	8d\L)	.	8g/]L 8G/]	.	8G\L)	.	4r	.	8dd\L) 8b\)	.	(8.dd\L	.	4r	.	8G/L	.	8d/L 8B/	.	8.ddT\L	.
8G'\	.	8G'\yy	.	8d'/	8d\	.	8g/ 8G'/	.	8G\	.	.	.	8dd\ 8b'\	.	.	.	.	.	8G/	.	8d/ 8B/	.	.	.
.	.	.	.	.	.	.	.	.	.	.	.	.	.	.	32ee\LL	.	.	.	.	.	.	.	(32ee\LL	.
.	.	.	.	.	.	.	.	.	.	.	.	.	.	.	32ff#\JJJ	.	.	.	.	.	.	.	32ff#\JJJ	.
8G'\J	.	8G'\Jyy	.	8d'/J	8d\J	.	8g/J 8G'/	.	8G\J	.	8r	.	8dd\J 8b'\	.	8gg\)	.	8r	.	8G/J	.	8d/J 8B/	.	8gg\)	.
8r	.	8ryy	.	8r	8ryy	.	8r	.	8r	.	8B\	.	8r	.	8r	.	8bb\	.	8r	.	8r	.	8r	.
=50	=50	=50	=50	=50	=50	=50	=50	=50	=50	=50	=50	=50	=50	=50	=50	=50	=50	=50	=50	=50	=50	=50	=50	=50
!	!	!	!	!	!	!	!	!	!	!	!	!	!	!	!	!	!	!	!	!	!	!LO:DY:a:rj	!	!
8F#\	.	8F#\yy	.	8d/	8d\	.	8f#X\	.	8F#\	.	8A\L|	.	8cc\ 8a\|	p	2r	.	8aa'\L	.	8A/	p	8d/ 8c/	p	2r	.
8r	.	8ryy	.	8r	8ryy	.	8rf	.	8r	.	(16e\L	.	8r	.	.	.	(16eee^<\L	.	8r	.	8r	.	.	.
.	.	.	.	.	.	.	.	.	.	.	16d\JJ)	.	.	.	.	.	16ddd\JJ)	.	.	.	.	.	.	.
8F#\	.	8F#\yy	.	8d/	8d\	.	8f#\	.	8F#\	.	8A\L|	.	8cc\ 8a\|	.	.	.	8aa'\L	.	8A/	.	8d/ 8c/	.	.	.
8r	.	8ryy	.	8r	8ryy	.	8r	.	8r	.	(16e\L	.	8r	.	.	.	(16eee^<\L	.	8r	.	8r	.	.	.
.	.	.	.	.	.	.	.	.	.	.	16d\JJ)	.	.	.	.	.	16ddd\JJ)	.	.	.	.	.	.	.
=51	=51	=51	=51	=51	=51	=51	=51	=51	=51	=51	=51	=51	=51	=51	=51	=51	=51	=51	=51	=51	=51	=51	=51	=51
*	*	*	*	*	*	*	*^	*	*	*	*	*	*	*	*	*	*	*	*	*	*	*	*	*
*	*	*	*	*	*	*	*	*	*	*	*	*	*	*	*	*	*	*	*	*Xtremolo	*	*Xtremolo	*	*	*
!	!	!	!	!	!	!	!	!	!	!LO:TX:t=P:problem=mixed beam	!	!	!	!	!	!	!	!	!	!	!	!	!	!	!
8G\	.	8G\yy	.	8d/L	8d\L	.	8g/L	8g\L	.	8G\L	.	(16B\LL	.	8b/L 8g/	.	4r	.	(16bb\LL	.	8r	.	8r	.	4r	.
.	.	.	.	.	.	.	.	.	.	.	.	16c\	.	.	.	.	.	16ccc\	.	.	.	.	.	.	.
8r	.	8ryy	.	8d/	8d\	.	8g/	8g\	.	8GG/	.	16B\	.	8b/ 8g/	.	.	.	16bb\	.	8G/L	.	8d/L 8B/	.	.	.
.	.	.	.	.	.	.	.	.	.	.	.	16A\JJ	.	.	.	.	.	16aa\JJ	.	.	.	.	.	.	.
4r	.	4ryy	.	8d/J	8d\J	.	8g/J	8g\J	.	8GG/J	.	8G\)	.	8b/J 8g/	.	8r	.	8gg\)	.	8G/J	.	8d/J 8B/	.	8r	.
.	.	.	.	8r	8ryy	.	8r	8ryy	.	8r	.	8r	.	8r	.	8g/	.	8r	.	8r	.	8r	.	8g/	.
*	*	*	*	*	*	*	*v	*v	*	*	*	*	*	*	*	*	*	*	*	*	*	*	*	*	*
=52	=52	=52	=52	=52	=52	=52	=52	=52	=52	=52	=52	=52	=52	=52	=52	=52	=52	=52	=52	=52	=52	=52	=52	=52
*	*	*	*	*	*	*	*	*	*	*	*	*	*	*	*	*	*	*	*tremolo	*	*tremolo	*	*	*
!	!	!	!	!	!	!	!	!	!	!	!	!	!LO:S:s=2:note:problem=note-level slur	!LO:DY:rj	!	!	!	!	!	!LO:DY:rj	!	!LO:DY:a:rj	!	!
8G\L	.	8G\Lyy	.	(2e/	(2cX\	>	[2g/ [2G/	.	[2G\	.	2r	.	(2ee\ (>2cc\	f > ]]	8gg'\L	.	2r	.	8G/L	f	8e/L 8c/	f	8gg\L	.
8G\	.	8G\yy	.	.	.	.	.	.	.	.	.	.	.	.	(16gg\L	.	.	.	8G/	.	8e/ 8c/	.	16gg\L	.
.	.	.	.	.	.	.	.	.	.	.	.	.	.	.	16ee\JJ)	.	.	.	.	.	.	.	16ee\JJ	.
8G\	.	8G\yy	.	.	.	.	.	.	.	.	.	.	.	.	8cc'\L	.	.	.	8G/	.	8e/ 8c/	.	8cc\L	.
8G\J	.	8G\Jyy	.	.	.	.	.	.	.	.	.	.	.	.	(16cc\L	.	.	.	8G/J	.	8e/J 8c/	.	16cc\L	.
.	.	.	.	.	.	.	.	.	.	.	.	.	.	.	16ee\JJ)	.	.	.	.	.	.	.	16ee\JJ	.
=53	=53	=53	=53	=53	=53	=53	=53	=53	=53	=53	=53	=53	=53	=53	=53	=53	=53	=53	=53	=53	=53	=53	=53	=53
*Xtremolo	*	*Xtremolo	*	*	*	*	*	*	*	*	*	*	*	*	*	*	*	*	*	*	*	*	*	*
8G\L	.	8G\Lyy	.	8d/L)	8d\L)	]	8g/]L 8G/]	.	8G\L]	.	4r	.	8dd\L) 8b\)	.	(8.dd\L	.	4r	.	8G/L	.	8d/L 8B/	.	8.dd\L	.
8G\	.	8G\yy	.	8d'/	8d\	.	8g/ 8G'/	.	8G'\	.	.	.	8dd\ 8b'\	.	.	.	.	.	8G/	.	8d/ 8B/	.	.	.
.	.	.	.	.	.	.	.	.	.	.	.	.	.	.	32ee\LL	.	.	.	.	.	.	.	(32ee\LL	.
.	.	.	.	.	.	.	.	.	.	.	.	.	.	.	32ff#\JJJ	.	.	.	.	.	.	.	32ff#\JJJ	.
8G\J	.	8G\Jyy	.	8d'/J	8d\J	.	8g/J 8G'/	.	8G'\J	.	8r	.	8dd\J 8b'\	.	8gg\)	.	8r	.	8G/J	.	8d/J 8B/	.	8gg\)	.
8r	.	8ryy	.	8r	8ryy	.	8r	.	8r	.	8B\	.	8r	.	8r	.	8bb\	.	8r	.	8r	.	8r	.
!!LO:PB:g=original
=54	=54	=54	=54	=54	=54	=54	=54	=54	=54	=54	=54	=54	=54	=54	=54	=54	=54	=54	=54	=54	=54	=54	=54	=54
!	!	!	!	!	!	!	!LO:TX:t=P:problem=w taktach  56-64 fagot II zamieniony z waltorniami	!	!LO:TX:a:t=Fagot 2	!	!	!	!	!	!	!	!	!	!	!	!	!	!	!
!.	!	!LO:TX:a:t=V&colon;C&colon;	!	!LO:TX:a:t=Corni	!	!	!LO:TX:a:t=Corni	!	!LO:TX:t=P:problem=w taktach  56-64 fagot II zamieniony z waltorniami	!	!	!	!LO:TX:a:t=Oboe	!	!LO:TX:a:i:t=Flauti	!	!	!	!	!	!	!LO:DY:a:rj	!	!
2ryy	.	8F#\	pp	8r	8ryy	.	2r	.	8F#\	.	8A\L|	.	8cc\ 8a\	.	2r	.	8aa'\L	.	8A/	.	8d/ 8c/	p	2r	.
.	.	8r	.	8d'/	8d\	.	.	.	8r	.	(16e\L	.	8r	.	.	.	(16eee^<\L	.	8r	.	8r	.	.	.
.	.	.	.	.	.	.	.	.	.	.	16d\JJ)	.	.	.	.	.	16ddd\JJ)	.	.	.	.	.	.	.
!	!	!	!	!	!	!	!	!	!	!	!	!	!	!	!	!	!LO:TX:t=P:problem=zapis poprawiany	!	!	!	!	!	!	!
.	.	8F#\	.	8r	8ryy	.	.	.	8F#\	.	8A\L|	.	8cc\ 8a\	.	.	.	8aa'\L	.	8A/	.	8d/ 8c/	.	.	.
.	.	8r	.	8d/	8d\	.	.	.	8r	.	(16e\L	.	8r	.	.	.	(16eeen^<\L	.	8r	.	8r	.	.	.
.	.	.	.	.	.	.	.	.	.	.	16d\JJ)	.	.	.	.	.	16ddd\JJ)	.	.	.	.	.	.	.
=55	=55	=55	=55	=55	=55	=55	=55	=55	=55	=55	=55	=55	=55	=55	=55	=55	=55	=55	=55	=55	=55	=55	=55	=55
!	!	!	!	!	!	!	!	!	!	!	!	!	!	!	!	!	!	!	!	!	!LO:TX:t=P:problem=zapis poprawiany	!	!	!
2ryy	.	8G\	.	8d/	8d\	.	2r	.	8G\	.	8G\	.	8b/ 8g/	.	8r	.	8gg\	.	8G/	.	8d/ 8B/	.	8r	.
.	.	8r	.	8r	8ryy	.	.	.	8r	.	8r	.	8r	.	16dd\LL	.	8r	.	4r	.	4r	.	(16dd\LL	.
.	.	.	.	.	.	.	.	.	.	.	.	.	.	.	16b\JJ	.	.	.	.	.	.	.	16b\JJ)	.
.	.	4r	.	4r	4ryy	.	.	.	4r	.	8r	.	4r	.	8gg\	.	8r	.	.	.	.	.	8gg\	.
.	.	.	.	.	.	.	.	.	.	.	8B\	.	.	.	8r	.	8bb\	.	8r	.	8r	.	8r	.
=56	=56	=56	=56	=56	=56	=56	=56	=56	=56	=56	=56	=56	=56	=56	=56	=56	=56	=56	=56	=56	=56	=56	=56	=56
*	*	*	*	*	*	*	*^	*	*	*	*	*	*	*	*	*	*	*	*	*	*	*	*	*
!	!	!LO:TX:b:t=piu Lento	!	!	!	!	!	!	!	!	!	!	!	!	!	!	!	!	!	!	!	!LO:TX:a:i:t=piu Lento	!	!	!
2ryy	.	8F#\	.	8d/	8d\	.	[2d/	2d\	.	8F#\	.	8A\L	.	8cc\ 8a\	.	2r	.	8aa\L|	.	8A/	.	8d/ 8c/	.	2r	.
.	.	8r	.	8r	8ryy	.	.	.	.	8r	.	(16e^<\L	.	8r	.	.	.	(16eeen^<\L	.	8r	.	8r	.	.	.
.	.	.	.	.	.	.	.	.	.	.	.	16d\JJ)	.	.	.	.	.	16ddd\JJ)	.	.	.	.	.	.	.
.	.	8F#\	.	8d/	8d\	.	.	.	.	8F#\	.	(16e-X^<\LL	.	8cc\ 8a\	.	.	.	(16eee-X^<\LL	.	8A/	.	8d/ 8c/	.	.	.
.	.	.	.	.	.	.	.	.	.	.	.	16d\)	.	.	.	.	.	16ddd\)	.	.	.	.	.	.	.
.	.	8r	.	8r	8ryy	.	.	.	.	8r	.	(16en^<\	.	8r	.	.	.	(16eeen^<\	.	8r	.	8r	.	.	.
.	.	.	.	.	.	.	.	.	.	.	.	16d\JJ)	.	.	.	.	.	16ddd\JJ)	.	.	.	.	.	.	.
=57	=57	=57	=57	=57	=57	=57	=57	=57	=57	=57	=57	=57	=57	=57	=57	=57	=57	=57	=57	=57	=57	=57	=57	=57	=57
!	!	!	!	!	!	!	!	!	!	!	!	!	!	!	!	!	!	!	!	!	!	!LO:TX:t=P:problem=zapis poprawiany	!	!	!
2ryy	.	8G\	.	8d/	8d\	.	8d/]	8d\	.	8G\	.	8B\	.	8b/ 8g/	.	8r	.	8bb\	.	8G/	.	8d/ 8B/	.	8r	.
.	.	8r	.	8r	8ryy	.	8r	8ryy	.	8r	.	8r	.	8r	.	(16bb\LL	.	8r	.	8r	.	4r	.	(16bb\LL	.
.	.	.	.	.	.	.	.	.	.	.	.	.	.	.	.	16gg\JJ	.	.	.	.	.	.	.	16gg\JJ)	.
.	.	4r	.	4r	4ryy	.	4r	4ryy	.	4r	.	8r	.	4r	.	8dd\)	.	8r	.	4r	.	.	.	8dd\	.
.	.	.	.	.	.	.	.	.	.	.	.	8B\	.	.	.	8r	.	8bb\	.	.	.	8r	.	8r	.
=58	=58	=58	=58	=58	=58	=58	=58	=58	=58	=58	=58	=58	=58	=58	=58	=58	=58	=58	=58	=58	=58	=58	=58	=58	=58
!	!	!LO:TX:t=P:problem=zapis poprawiany	!	!	!	!	!	!	!	!	!	!	!	!	!	!	!	!	!	!	!	!	!	!	!
!	!	!LO:TX:b:t=rallent(ando)	!	!	!	!	!	!	!	!	!	!	!	!	!	!	!	!	!	!	!	!LO:TX:a:i:t=rallent	!	!	!
2ryy	.	8d\	.	[2d/	[2d\	.	[2d/	2d\	.	8d\ 8D\	.	8A\L	.	8cc/ 8a/	.	2r	.	8aa\L|	.	8A/	.	8d/ 8c/	.	2r	.
.	.	8r	.	.	.	.	.	.	.	8r	.	(16e^<\L	.	8r	.	.	.	(16eee^<\L	.	8r	.	8r	.	.	.
.	.	.	.	.	.	.	.	.	.	.	.	16d\JJ)	.	.	.	.	.	16ddd\JJ)	.	.	.	.	.	.	.
.	.	8D\	.	.	.	.	.	.	.	8D\	.	(16e-X^<\LL	.	8cc/ 8a/	.	.	.	(16eee-X^<\LL	.	8A/	.	8d/ 8c/	.	.	.
.	.	.	.	.	.	.	.	.	.	.	.	16d\)	.	.	.	.	.	16ddd\)	.	.	.	.	.	.	.
.	.	8r	.	.	.	.	.	.	.	8r	.	(16en^<\	.	8r	.	.	.	(16eeen^<\	.	8r	.	8r	.	.	.
.	.	.	.	.	.	.	.	.	.	.	.	16d\JJ)	.	.	.	.	.	16ddd\JJ)	.	.	.	.	.	.	.
=59	=59	=59	=59	=59	=59	=59	=59	=59	=59	=59	=59	=59	=59	=59	=59	=59	=59	=59	=59	=59	=59	=59	=59	=59	=59
2ryy	.	8G\	.	8d/]	8d\]	.	8d/]	8d\	.	8G\	.	8G\	.	8b/ 8g/	.	2r	.	8gg\	.	8G/	.	8d/ 8B/	.	2r	.
.	.	8r	.	8r	8ryy	.	8r	8ryy	.	8r	.	8r	.	8r	.	.	.	8r	.	8r	.	4r	.	.	.
.	.	4r	.	4r	4ryy	.	4r	4ryy	.	4r	.	4r	.	4r	.	.	.	4r	.	4r	.	.	.	.	.
.	.	.	.	.	.	.	.	.	.	.	.	.	.	.	.	.	.	.	.	.	.	8r	.	.	.
*	*	*	*	*	*	*	*v	*v	*	*	*	*	*	*	*	*	*	*	*	*	*	*	*	*	*
=60	=60	=60	=60	=60	=60	=60	=60	=60	=60	=60	=60	=60	=60	=60	=60	=60	=60	=60	=60	=60	=60	=60	=60	=60
!	!	!	!	!	!	!	!	!	!LO:TX:t=P:problem=w taktach 62-64 powtórka partii wiolonczeli	!	!LO:TX:t=P:problem=w taktach 62-64 powtórka partii wiolonczeli	!	!	!	!	!	!	!	!LO:TX:t=P:problem=w taktach 62-64 powtórka partii wiolonczeli (oktawę wyżej)	!	!	!	!	!
!LO:TX:b:t=a Tempo	!	!LO:TX:b:t=a Tempo	!	!	!	!	!	!	!LO:TX:b:t=a Tempo	!	!LO:TX:b:t=a Tempo	!	!	!	!	!	!	!	!LO:TX:b:t=a Tempo	!	!	!	!	!
!LO:TX:a:t=tutti	!	!LO:TX:a:t=tutti	!	!	!	!LO:DY:a:rj	!	!	!LO:TX:a:t=tutti	!LO:DY:rj	!LO:TX:a:t=tutti	!LO:DY:rj	!	!	!	!	!	!	!LO:TX:a:t=tutti	!	!	!	!LO:TX:a:t=a Tempo.	!LO:DY:rj
8D\Lyy	ff	8D\L	ff	4d/	4d\	f	2r	.	8D\Lyy	ff	8D\Lyy	ff	4aa\ 4cc\	.	4ccc\	.	4fff#\	.	8d\Lyy	ff	4cc/ 4d/	.	4ff#\ 4a\ 4d\	ff
8F#\yy	.	8F#\	.	.	.	.	.	.	8F#\yy	.	8F#\yy	.	.	.	.	.	.	.	8f#\yy	.	.	.	.	.
8A\yy	.	8A\	.	4d/	4d\	.	.	.	8A\yy	.	8A\yy	.	4aa\ 4cc\	.	4ccc\	.	4fff#\	.	8a\yy	.	4cc/ 4d/	.	4ff#\ 4a\ 4d\	.
8d\Jyy	.	8d\J	.	.	.	.	.	.	8d\Jyy	.	8d\Jyy	.	.	.	.	.	.	.	8dd\Jyy	.	.	.	.	.
=61	=61	=61	=61	=61	=61	=61	=61	=61	=61	=61	=61	=61	=61	=61	=61	=61	=61	=61	=61	=61	=61	=61	=61	=61
8G\yy	.	8G\	.	4d/	4d\	.	4g/ 4G/	.	8G\yy	.	8G\yy	.	4gg\ 4b\	.	4bb\	.	4ggg\	.	8.g\yy	.	4b/ 4d/	.	4gg\ 4b\ 4d\	.
16ryy	.	16r	.	.	.	.	.	.	16ryy	.	16ryy	.	.	.	.	.	.	.	.	.	.	.	.	.
16G\yy	.	16G\	.	.	.	.	.	.	16G\yy	.	16G\yy	.	.	.	.	.	.	.	16g\yy	.	.	.	.	.
8D/Lyy	.	8D/L	.	4d/	4d\	.	4g/ 4G/	.	8D/Lyy	.	8D/Lyy	.	4gg\ 4b\	.	4bb\	.	4ggg\	.	8d\Lyy	.	4b/ 4d/	.	4gg\ 4b\ 4d\	.
8BB/Jyy	.	8BB/J	.	.	.	.	.	.	8BB/Jyy	.	8BB/Jyy	.	.	.	.	.	.	.	8B\Jyy	.	.	.	.	.
*	*	*	*	*v	*v	*	*	*	*	*	*	*	*	*	*	*	*	*	*	*	*	*	*	*
=62	=62	=62	=62	=62	=62	=62	=62	=62	=62	=62	=62	=62	=62	=62	=62	=62	=62	=62	=62	=62	=62	=62	=62
2GG;/yy	.	2GG;/	.	2d;\	.	2g/ 2G/	.	2GG;/yy	.	2GG;/yy	.	2gg\ 2b;\	.	2bb;\	.	2ggg\	.	2G;/yy	.	2b/ 2d;/	.	2gg\ 2b\ 2d;\	.
==	==	==	==	==	==	==	==	==	==	==	==	==	==	==	==	==	==	==	==	==	==	==	==
*-	*-	*-	*-	*-	*-	*-	*-	*-	*-	*-	*-	*-	*-	*-	*-	*-	*-	*-	*-	*-	*-	*-	*-
!!!EED: Andrzej Borzym
!!!EEV: 2021-05-17
!!!RDF**kern: | = vertical stroke
!!!RDF**kern: > = above
!!!RDF**kern: < = below
!!!ENC: Andrzej Gręziak
!!!END: 2021-04-26
